!!!!SEGMENT: pl-cz--iii-349--001-003_koperski-maksymilian--msza-b-credo.krn
!!!cenid: 18xx:889
!!!COM: Koperski, Maksymilian
!!!COM-rismID: pe30060120
!!!CDT: 1812-1886
!!!CNT:
!!!OPR: Msza B
!!!OTL: Credo
!!!OMV: 003
!!!PDT: 1834
!!!AGN: Sacred; Mass
!!!SMS-siglum: PL-CZ
!!!SMS-shelfmark: III-349
!!!SMS-shelfwork: 001-003 M
!!!SMS-variant:
!!!SMS-altvar:
!!!NIFC-rismSourceID: 300000599
!!!NIFC-rismChildID: 300000599
!!!NIFC-islandoraID: pl-cz:37819
!!!URL-pdf-islandora: https://repozytorium.nifc.pl/islandora/object/pl-cz%3A37819/datastream/PDF/view
!!!URL-scan: https://polish.musicsources.pl/pl/lokalizacje/galeria/rekopisy/6910/1 @EN{Scan on Polish Music Sources Website} @PL{Skany w portalu Dziedzictwo Muzyki Polskiej w otwartym dostępie}
!!!IIIF:
!!!ONB-nifc: UWAGA: części Mszy: Kyrie, Gloria, Credo, Et incarnatus, Et resurrexit, Sanctus, Pleni, Benedictus, Agnus Dei
!!!AIN: 1 alto 1 bass 2 clars 2 clrno 1 fagot 1 flt 1 organ 1 soprn 1 tenor 1 timpa 1 viola 2 violn
!!!key: B-
**kern	**fba	**dynam	**kern	**dynam	**kern	**dynam	**kern	**dynam	**kern	**text	**dynam	**kern	**text	**dynam	**kern	**text	**dynam	**kern	**text	**dynam	**kern	**dynam	**kern	**dynam	**kern	**dynam	**kern	**dynam	**kern	**dynam	**kern	**dynam	**kern	**dynam
*part15	*part15	*part15	*part14	*part14	*part13	*part13	*part12	*part12	*part11	*part11	*part11	*part10	*part10	*part10	*part9	*part9	*part9	*part8	*part8	*part8	*part7	*part7	*part6	*part6	*part5	*part5	*part4	*part4	*part3	*part3	*part2	*part2	*part1	*part1
*staff15	*	*	*staff14	*	*staff13	*	*staff12	*	*staff11	*staff11	*	*staff10	*staff10	*	*staff9	*staff9	*	*staff8	*staff8	*	*staff7	*	*staff6	*	*staff5	*	*staff4	*	*staff3	*	*staff2	*	*staff1	*
*I"Organo.	*	*	*I"Alto Viola	*	*I"Violino 2do	*	*I"Violino 1mo	*	*I"Basso	*	*	*I"Tenore.	*	*	*I"Alto.	*	*	*I"Canto	*	*	*I"Tympano in B	*	*I"Clarino 2do in B	*	*I"Clarino 1mo in B	*	*I"Fagotto	*	*I"Clarinetto 2do in B	*	*I"Clarinetto 1mo in B	*	*I"Flauto	*
*I'org	*	*	*I'a-vla	*	*I'vl II	*	*I'vl I	*	*I'B	*	*	*I'T	*	*	*I'A	*	*	*I'S	*	*	*I'timp	*	*I'clno II	*	*I'clno I	*	*I'fag	*	*I'cl II	*	*I'cl I	*	*I'fl	*
*ICklav	*	*	*ICstr	*	*ICstr	*	*ICstr	*	*ICvox	*	*	*ICvox	*	*	*ICvox	*	*	*ICvox	*	*	*ICidio	*	*ICbras	*	*ICbras	*	*ICww	*	*ICww	*	*ICww	*	*ICww	*
*Iorgan	*	*	*Iviola	*	*Ivioln	*	*Ivioln	*	*Ibass	*	*	*Itenor	*	*	*Ialto	*	*	*Isoprn	*	*	*Itimpa	*	*Iclrno	*	*Iclrno	*	*Ifagot	*	*Iclars	*	*Iclars	*	*Iflt	*
*clefF4	*	*	*clefC3	*	*clefG2	*	*clefG2	*	*clefF4	*	*	*clefC4	*	*	*clefC3	*	*	*clefC1	*	*	*clefF4	*	*clefG2	*	*clefG2	*	*clefF4	*	*clefG2	*	*clefG2	*	*clefG2	*
*	*	*	*	*	*	*	*	*	*	*	*	*	*	*	*	*	*	*	*	*	*ITrd1c2	*	*ITrd1c2	*	*ITrd1c2	*	*	*	*ITrd1c2	*	*ITrd1c2	*	*	*
*B-:	*	*	*B-:	*	*B-:	*	*B-:	*	*B-:	*	*	*B-:	*	*	*B-:	*	*	*B-:	*	*	*B-:	*	*B-:	*	*B-:	*	*B-:	*	*B-:	*	*B-:	*	*B-:	*
*k[b-e-]	*	*	*k[b-e-]	*	*k[b-e-]	*	*k[b-e-]	*	*k[b-e-]	*	*	*k[b-e-]	*	*	*k[b-e-]	*	*	*k[b-e-]	*	*	*k[b-e-]	*	*k[b-e-]	*	*k[b-e-]	*	*k[b-e-]	*	*k[b-e-]	*	*k[b-e-]	*	*k[b-e-]	*
*B-:	*	*	*B-:	*	*B-:	*	*B-:	*	*B-:	*	*	*B-:	*	*	*B-:	*	*	*B-:	*	*	*	*	*	*	*	*	*B-:	*	*	*	*	*	*B-:	*
*M3/4	*	*	*M3/4	*	*M3/4	*	*M3/4	*	*M3/4	*	*	*M3/4	*	*	*M3/4	*	*	*M3/4	*	*	*M3/4	*	*M3/4	*	*M3/4	*	*M3/4	*	*M3/4	*	*M3/4	*	*M3/4	*
=1	=1	=1	=1	=1	=1	=1	=1	=1	=1	=1	=1	=1	=1	=1	=1	=1	=1	=1	=1	=1	=1	=1	=1	=1	=1	=1	=1	=1	=1	=1	=1	=1	=1	=1
!!LO:TX:t=P:problem: all\right	!	!	!	!	!	!	!	!	!	!	!	!	!	!	!	!	!	!	!	!	!	!	!	!	!	!	!	!	!	!	!	!	!
!	!	!	!	!	!	!	!	!	!	!	!	!	!	!	!	!	!	!	!	!	!	!	!	!	!	!	!	!	!	!	!	!	!	!
!	!	!	!	!LO:DY:a	!	!	!	!	!	!	!	!	!	!	!	!	!	!	!	!LO:DY:a	!	!	!	!	!	!	!LO:TX:t=P:problem=klucz wiolinowy, bemole, klucz basowy, metrum 	!	!	!LO:DY:a	!	!LO:DY:a	!LO:TX:a:B:t=allegro con Motto	!
!	!	!LO:DY:b:t=fo.	!	!	!	!	!	!	!	!	!	!	!	!	!	!	!	!	!	!	!	!	!	!	!	!	!	!	!	!	!	!	!	!
!	!	!	!	!	!	!LO:DY:b:t=fo	!	!	!	!	!	!	!	!	!	!	!	!	!	!	!	!	!	!	!	!	!	!	!	!LO:DY:b:t=fo	!	!	!	!
!	!	!	!	!	!	!	!	!	!	!	!	!	!	!	!	!	!	!	!	!LO:DY:b:t=for	!	!	!	!	!	!	!	!	!	!	!	!	!	!
!	!	!	!	!	!	!	!	!	!	!	!	!	!	!	!	!	!	!	!	!	!	!LO:DY:b:t=fo	!	!LO:DY:b:t=for	!	!LO:DY:b:t=fo	!	!	!	!	!	!	!	!
!	!	!	!	!	!	!	!	!	!	!	!	!	!	!	!	!	!	!	!	!	!	!	!	!	!	!	!	!LO:DY:b:t=fo	!	!	!	!	!	!
!	!	!	!LO:TX:B:t=allegro	!	!	!	!LO:TX:B:t=allegro con Molto	!	!LO:TX:B:t=allegro con Moderato	!	!	!LO:TX:B:t=allegro con Molto	!	!	!LO:TX:B:t=allegro con Molto	!	!	!	!	!	!	!	!	!	!	!	!	!	!	!	!	!	!	!
!	!	!	!	!	!	!	!	!	!	!	!	!	!	!	!	!	!	!	!	!	!	!	!	!	!	!	!	!	!LO:TX:a:B:t=allegro con Molto	!	!LO:TX:a:B:t=allegro con Motto	!	!	!
!	!	!	!	!	!	!	!	!	!	!	!	!	!	!	!	!	!	!	!	!	!LO:TX:B:t=allegro con Motto	!	!LO:TX:B:t=allegro con Molto	!	!LO:TX:a:B:t=allegro con Motto	!	!LO:TX:a:B:t=allegro con Motto	!	!	!LO:DY:b:t=fo	!	!	!	!
4B-\	.	f	4b-\	>	4d/ 4b-	f >	4d^/ 4b-	f	4B-\	Cre-	.	4f\	Cre-	.	4d^\	Cre-	.	4b-\	Cre-	f >	4BB-/	f	4d/	f <	4b-\	f	4BB-/	f	4d/	f >	4b-\	f >	4ddd\	f
!	!	!	!	!	!	!LO:DY:a	!	!	!	!	!	!	!	!	!	!	!	!	!	!	!	!	!	!	!	!	!	!	!	!	!	!	!	!
4F\	.	.	4f\	]	4c/ 4a	] <	(8a/L	.	4F\	-do	.	4f\	-do	.	4c\	-do	.	4a\	-do	]	4FF/	.	4f/	[	4cc\	.	4F\	.	4e-/	]	4a\	]	4ccc\	.
.	.	.	.	.	.	.	8f/	.	.	.	.	.	.	.	.	.	.	.	.	.	.	.	.	.	.	.	.	.	.	.	.	.	.	.
4r	.	.	4r	.	4r	[	8a/)	.	8r	.	.	8r	.	.	8r	.	.	8r	.	.	4r	.	4r	.	4r	.	4r	.	4r	.	4r	.	4r	.
.	.	.	.	.	.	.	8cc/J	.	8F\	in	.	8f\	in	.	8a\	in	.	8cc\	in	.	.	.	.	.	.	.	.	.	.	.	.	.	.	.
=2	=2	=2	=2	=2	=2	=2	=2	=2	=2	=2	=2	=2	=2	=2	=2	=2	=2	=2	=2	=2	=2	=2	=2	=2	=2	=2	=2	=2	=2	=2	=2	=2	=2	=2
!	!	!	!	!	!	!LO:DY:a	!	!	!	!	!	!	!	!	!	!	!	!	!	!LO:DY:a	!	!	!	!	!	!	!	!	!	!LO:DY:a	!	!LO:DY:a	!	!
4F\	7 5	.	4f^\	.	4f/ 4cc	>	4f^\ 4ee-	.	4A^\	u-	.	4f\	u-	.	4cc\	un(n)-	.	4ee-\	u-	>	4FF/	.	4f/	<	4cc\	.	4F\	.	4cc\	>	4ee-\	>	4ccc\	.
!	!	!	!	!	!	!LO:DY:a	!	!	!	!	!	!	!	!	!	!	!	!	!	!	!	!	!	!	!	!	!	!	!	!	!	!	!	!
4BB-/	.	.	4B-\	.	4d/ 4b-	] <	8dd\L	.	4B-\	-nu(m)	.	4f\	-nu(m)	.	4b-\	-um	.	4dd\	-nu(m)	]	4BB-/	.	4b-\	[	4dd\	.	4B-\	.	4b-\	]	4dd\	]	4bb-\	.
.	.	.	.	.	.	.	8b-\	.	.	.	.	.	.	.	.	.	.	.	.	.	.	.	.	.	.	.	.	.	.	.	.	.	.	.
4r	.	.	4r	.	4r	[	8dd\	.	4r	.	.	4r	.	.	4r	.	.	4r	.	.	4r	.	4r	.	4r	.	4r	.	4r	.	4r	.	4r	.
.	.	.	.	.	.	.	8ff\J	.	.	.	.	.	.	.	.	.	.	.	.	.	.	.	.	.	.	.	.	.	.	.	.	.	.	.
=3	=3	=3	=3	=3	=3	=3	=3	=3	=3	=3	=3	=3	=3	=3	=3	=3	=3	=3	=3	=3	=3	=3	=3	=3	=3	=3	=3	=3	=3	=3	=3	=3	=3	=3
!	!	!	!	!	!	!LO:DY:a	!	!	!	!	!	!	!	!	!	!	!	!	!	!	!	!	!	!	!	!	!	!	!	!	!	!	!	!
8.BB-'/L	.	>	8.b-'\L	.	8.b-\L	<	8.bb-\L	.	8.BB-/L	in	.	(8.B-\L	in	.	(8.b-\L	in	.	8.b-\L	in	.	2.r	.	2.r	.	2.r	.	8.B-\L	.	8.b-\L	.	8.b-\L	.	8.bb-\L	ff
16C'/Jk	.	.	16cc'\Jk	>	16cc\Jk	[	16ccc\Jk	.	16C/Jk	.	.	16c\Jk)	.	.	16cc\Jk)	.	.	16cc\Jk	.	.	.	.	.	.	.	.	16c\Jk	.	16a\Jk	.	16cc\Jk	.	16ccc\Jk	.
4D-X'/	.	]	4dd-X'\	]	8dd-X\L	.	8ddd-X\L	.	4D-X\	un-	.	4d-X\	u(n)-	.	4dd-X\	u-	.	4dd-X\	u-	.	.	.	.	.	.	.	4d-X\	.	4b-\	.	4dd-X\	.	4ddd-X\	.
!	!	!	!	!	!	!LO:DY:a	!	!	!	!	!	!	!	!	!	!	!	!	!	!	!	!	!	!	!	!	!	!	!	!	!	!	!	!
.	.	.	.	.	16cc\L	>	16ccc\L	.	.	.	.	.	.	.	.	.	.	.	.	.	.	.	.	.	.	.	.	.	.	.	.	.	.	.
.	.	.	.	.	16b-\JJ	.	16bb-\JJ	.	.	.	.	.	.	.	.	.	.	.	.	.	.	.	.	.	.	.	.	.	.	.	.	.	.	.
8C'/L	.	.	8cc'\L	.	16a\LL	.	16aa\LL	.	4d\	-num	.	4g\	-nu(m)	.	4b-\	-nu(m)	.	4een\	-nu(m)	.	.	.	.	.	.	.	8c\L	.	4eeX\	.	4gg\	.	4eeen\	.
.	.	.	.	.	16b-\	.	16bb-\	.	.	.	.	.	.	.	.	.	.	.	.	.	.	.	.	.	.	.	.	.	.	.	.	.	.	.
8BB-'/J	.	.	8b-'\J	.	16cc\	]	16ccc\	.	.	.	.	.	.	.	.	.	.	.	.	.	.	.	.	.	.	.	8B-\J	.	.	.	.	.	.	.
.	.	.	.	.	16b-\JJ	.	16bb-\JJ	.	.	.	.	.	.	.	.	.	.	.	.	.	.	.	.	.	.	.	.	.	.	.	.	.	.	.
=4	=4	=4	=4	=4	=4	=4	=4	=4	=4	=4	=4	=4	=4	=4	=4	=4	=4	=4	=4	=4	=4	=4	=4	=4	=4	=4	=4	=4	=4	=4	=4	=4	=4	=4
!	!	!	!	!	!	!LO:DY:a	!	!	!	!	!	!	!	!	!	!	!LO:DY:a	!	!	!LO:DY:a	!LO:TX:a:t=1	!LO:DY:a	!LO:TX:a:t=1	!LO:DY:a	!LO:TX:a:t=1	!LO:DY:a	!	!LO:DY:a	!	!	!	!	!	!
4AA/	.	.	4a\	.	4f/ 4a	<	4aa\	.	4C\	De-	.	4f\	De-	.	4a\	De-	>	4ff\	De-	>	4FF/	>	4f/	>	4cc\	>	4A\	>	4cc\	.	4ff\	.	4fff\	.
4F^\	.	.	4f^\	.	4f/ 4a	[	4a^\ 4ff	.	4c^\	-um	.	4f\	-um	.	4a\	-um	]	4ff\	-um	]	4FF/	]	4f/	]	4cc\	]	4F\	]	4cc\	.	4ff^\	.	4fff\	.
4r	.	.	4r	.	4r	p	4r	.	4r	.	.	4r	.	.	4r	.	.	4r	.	.	4r	.	4r	.	4r	.	4r	.	4r	.	4r	.	4r	.
!	!	!	!	!	!	!	!LO:LB:g=original	!	!	!	!	!	!	!	!	!	!	!	!	!	!	!	!	!	!	!	!	!	!	!	!	!	!	!
=5	=5	=5	=5	=5	=5	=5	=5	=5	=5	=5	=5	=5	=5	=5	=5	=5	=5	=5	=5	=5	=5	=5	=5	=5	=5	=5	=5	=5	=5	=5	=5	=5	=5	=5
!	!	!	!	!	!	!	!	!	!	!	!	!	!	!	!	!	!	!	!	!	!	!	!	!	!	!	!	!	!	!	!	!	!	!
!	!	!	!	!	!	!	!	!LO:DY:b:t=p.	!	!	!	!	!	!	!	!	!	!	!	!	!	!	!	!	!	!	!	!	!	!	!	!	!	!
2.r	.	.	2.r	.	4dd\	.	(4ff\	p	2.r	.	.	2.r	.	.	(4dd\	pa-	.	(4ff\	Pa-	p	2.r	.	2.r	.	2.r	.	2.r	.	2.r	.	2.r	.	2.r	.
!	!	!	!	!	!	!LO:DY:a	!	!	!	!	!	!	!	!	!	!	!	!	!	!	!	!	!	!	!	!	!	!	!	!	!	!	!	!
.	.	.	.	.	4cc\	>	4ee-\)	.	.	.	.	.	.	.	4cc\	.	.	4ee-\	.	.	.	.	.	.	.	.	.	.	.	.	.	.	.	.
.	.	.	.	.	4b-\	]	4dd'\	.	.	.	.	.	.	.	4b-\)	-trem	.	4dd\)	-trem	.	.	.	.	.	.	.	.	.	.	.	.	.	.	.
!	!	!	!	!	!LO:LB:g=original	!	!	!	!	!	!	!	!	!	!	!	!	!	!	!	!	!	!	!	!	!	!	!	!	!	!	!	!	!
=6	=6	=6	=6	=6	=6	=6	=6	=6	=6	=6	=6	=6	=6	=6	=6	=6	=6	=6	=6	=6	=6	=6	=6	=6	=6	=6	=6	=6	=6	=6	=6	=6	=6	=6
!	!	!	!LO:TX:a:i:t=Dol	!	!	!	!	!	!LO:TX:a:t=1	!	!	!	!	!	!	!	!	!	!	!	!LO:TX:a:t=6	!	!LO:TX:a:t=6	!	!LO:TX:a:t=6	!	!	!	!	!	!LO:TX:a:t=1	!	!LO:TX:a:t=1	!
!	!	!	!	!	!	!	!	!	!	!	!	!	!	!	!	!	!	!	!	!	!	!	!	!	!	!	!	!	!	!LO:DY:b:t=p.	!	!	!	!
4BB-/	.	p	4b-\	p	4f/	.	(4dd\	.	(4d\	pa-	p	(4f\	pa-	p	4f\	pa-	.	4dd\	pa-	.	2.r	.	2.r	.	2.r	.	4B-\	p	(4dd\	p	4ff\	p	4ddd\	p
!	!	!	!	!	!	!LO:DY:a	!	!	!	!	!	!	!	!	!	!	!	!	!	!	!	!	!	!	!	!	!	!LO:DY:a	!	!	!	!	!	!
4C/	.	.	4cc\	.	4e-/	>	4cc\)	.	4c\	-trem	.	4e-\)	.	.	4e-\	-trem	.	4cc\	-trem	.	.	.	.	.	.	.	4c\	>	4cc\	.	4ee-\	.	4ccc\	.
4D/	.	.	4dd\	.	4d/	]	4b-'\	.	4B-\)	.	.	4d\	-trem	.	4d\	om-	.	4b-\	om-	.	.	.	.	.	.	.	4d\	]	4b-\)	.	4dd\	.	4bb-\	.
=7	=7	=7	=7	=7	=7	=7	=7	=7	=7	=7	=7	=7	=7	=7	=7	=7	=7	=7	=7	=7	=7	=7	=7	=7	=7	=7	=7	=7	=7	=7	=7	=7	=7	=7
2E-\	4 2	.	2ee-\	.	2c/	.	2a^\	.	2E-\	om-	.	2f\	om-	.	2c^\	-ni-	.	2a^\	-ni-	.	2.r	.	2.r	.	2.r	.	2e-^\	.	2cc\	.	2ee-^\	.	2aa^\	.
4D\	6 3	.	4dd\	.	4d/	.	4b-\	.	4D\	-ni-	.	4f\	-ni-	.	4d\	-po-	.	4b-\	-po-	.	.	.	.	.	.	.	4d\	.	4b-\	.	4dd\	.	4bb-\	.
!	!	!	!	!	!	!	!	!	!LO:LB:g=original	!	!	!LO:LB:g=original	!	!	!LO:LB:g=original	!	!	!	!LO:LB:g=original	!	!	!	!	!	!	!	!	!	!	!	!	!	!	!
=8	=8	=8	=8	=8	=8	=8	=8	=8	=8	=8	=8	=8	=8	=8	=8	=8	=8	=8	=8	=8	=8	=8	=8	=8	=8	=8	=8	=8	=8	=8	=8	=8	=8	=8
!	!	!	!LO:TX:t=P:problem=brak linii dodanej	!	!	!	!	!	!	!	!	!	!	!	!	!	!	!	!	!	!	!	!	!	!	!	!	!	!	!	!	!	!	!
2AA/	6 3	.	2cc\	.	2cc^\	.	2ee-^\	.	4A\	-po-	.	4f\	-po-	.	2cc\	-ten-	.	2ee-\	-ten-	.	2.r	.	2.r	.	2.r	.	2A^\	.	2f/	.	2a^\	.	2eee-\	.
!	!	!	!	!	!	!	!	!	!	!	!	!	!	!	!	!	!	!	!	!	!	!	!	!	!	!	!	!	!	!	!	!	!	!
.	.	.	.	.	.	.	.	.	4A\	-te(n)-	.	4f\	-ten-	.	.	.	.	.	.	.	.	.	.	.	.	.	.	.	.	.	.	.	.	.
4BB-/	3	.	4b-\	.	4b-\	.	4dd\	.	4B-\	-te(m)	.	4f\	-tem	.	4b-\	-tem	.	4dd\	-tem	.	.	.	.	.	.	.	4B-\	.	4b-\	.	4b-\	.	4ddd\	.
!	!	!	!LO:LB:g=original	!	!	!	!	!	!	!	!	!	!	!	!	!	!	!	!	!	!	!	!	!	!	!LO:LB:g=original	!	!LO:LB:g=original	!	!	!LO:LB:g=original	!	!	!
=9	=9	=9	=9	=9	=9	=9	=9	=9	=9	=9	=9	=9	=9	=9	=9	=9	=9	=9	=9	=9	=9	=9	=9	=9	=9	=9	=9	=9	=9	=9	=9	=9	=9	=9
2E-\	.	.	2e-\	.	4ee-\	.	4gg^\	.	4E-\	fa-	.	4e-\	fac-	.	4b-\	fac-	.	4gg\	fac-	.	2.r	.	2.r	.	2.r	.	4d\	.	4g/	.	4ee-\	.	4eee-\	.
!	!	!	!	!	!	!LO:DY:a	!	!	!	!	!	!	!	!	!	!	!	!	!	!	!	!	!	!	!	!	!	!	!	!	!	!	!	!
.	.	.	.	.	4ee-\	>	(4gg^\	.	4E-\	-cto-	.	4e-\	-to-	.	4b-\	-to-	.	4gg\	-to-	.	.	.	.	.	.	.	4e-\	.	4g/	.	4ee-\	.	4eee-\	.
4F\	.	.	4f\	.	4dd\	]	4ff\)	.	4D\	-rem	.	4d\	-re(m)	.	4b-\	-re(m)	.	4ff\	-rem	.	.	.	.	.	.	.	4f\	.	4f/	.	4dd\	.	4fff\	.
!LO:LB:g=original	!	!	!	!	!	!	!	!	!	!	!	!	!	!	!	!	!	!	!	!	!	!	!	!	!	!	!	!	!	!	!	!	!LO:LB:g=original	!
=10	=10	=10	=10	=10	=10	=10	=10	=10	=10	=10	=10	=10	=10	=10	=10	=10	=10	=10	=10	=10	=10	=10	=10	=10	=10	=10	=10	=10	=10	=10	=10	=10	=10	=10
!	!	!	!	!	!	!LO:DY:a	!	!	!	!	!	!	!	!	!	!	!	!	!	!	!	!	!	!	!	!	!	!	!LO:TX:t=P:problem=mixed beam	!	!	!	!	!
!	!	!LO:DY:b:t=fo	!	!LO:DY:b:t=fo	!	!	!	!	!	!	!	!	!	!	!	!	!	!	!	!	!	!	!	!	!	!	!	!	!	!	!	!	!	!
(4G\	n6_ #4_	f	4g\	f	4dd-X\	<	4een^\	.	8.En\	ce-	.	8.g\	ce-	.	8.dd-X\	cae-	.	8.een\	ce-	.	2.r	.	2.r	.	2.r	.	8.g\L	.	8.f-X/L	.	8.gg\L	ff	8.eeen\L	.
.	.	.	.	.	.	.	.	.	16G\	-li	.	16g\	-li	.	16dd-\	-li	.	16ee\	-li	.	.	.	.	.	.	.	16g\Jk	.	16ff-X/Jk	.	16gg\Jk	.	16ddd-X\Jk	.
8G\L	.	.	8g\L	.	4dd-\	[	4ee^\	.	4B-\	te	.	4g\	et	.	4dd-\	et	.	4ee\	et	.	.	.	.	.	.	.	4g\	.	4ff-\	.	4gg\	.	4bb-\	.
16en\L	.	.	(16een\L	.	.	.	.	.	.	.	.	.	.	.	.	.	.	.	.	.	.	.	.	.	.	.	.	.	.	.	.	.	.	.
16d-X\JJ	.	.	16dd-X\JJ	.	.	.	.	.	.	.	.	.	.	.	.	.	.	.	.	.	.	.	.	.	.	.	.	.	.	.	.	.	.	.
16B-\LL	.	.	16b-\LL	.	4r	.	4r	.	4r	.	.	4r	.	.	4r	.	.	4r	.	.	.	.	.	.	.	.	4r	.	4r	.	4r	.	4r	.
16G\	.	.	16g\	.	.	.	.	.	.	.	.	.	.	.	.	.	.	.	.	.	.	.	.	.	.	.	.	.	.	.	.	.	.	.
16En\)	.	.	16en\)	.	.	.	.	.	.	.	.	.	.	.	.	.	.	.	.	.	.	.	.	.	.	.	.	.	.	.	.	.	.	.
16D-X\JJ	.	.	16d-X\JJ	.	.	.	.	.	.	.	.	.	.	.	.	.	.	.	.	.	.	.	.	.	.	.	.	.	.	.	.	.	.	.
=11	=11	=11	=11	=11	=11	=11	=11	=11	=11	=11	=11	=11	=11	=11	=11	=11	=11	=11	=11	=11	=11	=11	=11	=11	=11	=11	=11	=11	=11	=11	=11	=11	=11	=11
!	!	!	!	!	!	!LO:DY:a	!	!	!	!	!	!	!	!	!	!	!	!	!	!	!	!	!	!	!	!	!	!	!	!	!	!	!	!
4C\	7_ 5_	.	4c\	.	4cc-X\	<	4ee-X^\	.	4A\	ter-	.	4f\	ter-	.	4cc\	ter-	.	4ee-X\	ter-	.	4FF/	.	4f/	>	4cc\	.	4f\	.	4cc\	.	4ff\	.	8.eee-X\L	.
.	.	.	.	.	.	.	.	.	.	.	.	.	.	.	.	.	.	.	.	.	.	.	.	.	.	.	.	.	.	.	.	.	16ccc\Jk	.
8F\L	.	.	8f\L	.	4cc-\	[	4ee-^\	.	4A\	-re	.	4f\	-ra	.	4cc\	-re	.	4ee-\	-re	.	4FF/	.	4f/	]	4cc\	.	4f\	.	4cc\	.	4ff\	.	4aa\	.
(16e-X\L	.	.	16ee-\L	.	.	.	.	.	.	.	.	.	.	.	.	.	.	.	.	.	.	.	.	.	.	.	.	.	.	.	.	.	.	.
16c\JJ	.	.	16cc\JJ	.	.	.	.	.	.	.	.	.	.	.	.	.	.	.	.	.	.	.	.	.	.	.	.	.	.	.	.	.	.	.
16A\LL)	.	.	16a\LL	.	4r	.	4r	.	4r	.	.	4r	.	.	4r	.	.	4r	.	.	4r	.	4r	.	4r	.	4r	.	4r	.	4r	.	4r	.
16F\	.	.	16f\	.	.	.	.	.	.	.	.	.	.	.	.	.	.	.	.	.	.	.	.	.	.	.	.	.	.	.	.	.	.	.
16E-\	.	.	16e-\	.	.	.	.	.	.	.	.	.	.	.	.	.	.	.	.	.	.	.	.	.	.	.	.	.	.	.	.	.	.	.
16C\JJ	.	.	16c\JJ	.	.	.	.	.	.	.	.	.	.	.	.	.	.	.	.	.	.	.	.	.	.	.	.	.	.	.	.	.	.	.
=12	=12	=12	=12	=12	=12	=12	=12	=12	=12	=12	=12	=12	=12	=12	=12	=12	=12	=12	=12	=12	=12	=12	=12	=12	=12	=12	=12	=12	=12	=12	=12	=12	=12	=12
!	!	!	!	!	!	!	!LO:TX:a:i:t=Dolce	!	!	!	!	!	!	!	!	!	!	!	!	!	!	!	!	!	!	!	!	!	!	!	!	!	!LO:TX:a:i:t=dolce	!
4BB-/	.	p	4B-/	.	2.r	.	(4dd\	.	2.r	.	.	2.r	.	.	2.r	.	.	(4dd\	vi-	.	2.r	.	2.r	.	2.r	.	4B-\	.	2.r	.	2.r	.	4ddd\	p
4r	.	.	4r	.	.	.	4b-\)	.	.	.	.	.	.	.	.	.	.	4b-\)	.	.	.	.	.	.	.	.	4c\	.	.	.	.	.	4bb-\	.
!	!	!	!	!	!	!	!	!LO:DY:b:t=fo	!	!	!	!	!	!	!	!	!	!	!	!	!	!	!	!	!	!	!	!	!	!	!	!	!	!
4r	.	.	4r	.	.	.	4f/	f	.	.	.	.	.	.	.	.	.	4f/	-si-	.	.	.	.	.	.	.	4d\	.	.	.	.	.	4ff\	.
=13	=13	=13	=13	=13	=13	=13	=13	=13	=13	=13	=13	=13	=13	=13	=13	=13	=13	=13	=13	=13	=13	=13	=13	=13	=13	=13	=13	=13	=13	=13	=13	=13	=13	=13
!	!	!	!	!	!	!	!	!	!LO:TX:a:t=2	!	!	!LO:TX:a:t=2	!	!	!LO:TX:a:t=2	!	!	!	!	!	!LO:TX:a:t=14	!	!LO:TX:a:t=14	!	!LO:TX:a:t=14	!	!	!	!	!	!	!	!	!
4E-\	6	.	8G/L	.	4G^/ 4e-	.	(8g\L	.	2.r	.	.	2.r	.	.	2.r	.	.	(8g\L	-bi-	.	2.r	.	2.r	.	2.r	.	4f\	.	4e-/	.	4cc\	.	4gg\	.
!	!	!	!LO:TX:t=P:problem=wysokość nut 2-5 korygowana	!	!	!	!	!	!	!	!	!	!	!	!	!	!	!	!	!	!	!	!	!	!	!	!	!	!	!	!	!	!	!
.	.	.	8B-/	.	.	.	8bn\	.	.	.	.	.	.	.	.	.	.	8bn\J	.	.	.	.	.	.	.	.	.	.	.	.	.	.	.	.
4r	.	.	8c/	.	4r	.	8cc\	.	.	.	.	.	.	.	.	.	.	8cc\L	-li-	.	.	.	.	.	.	.	4e-\	.	4r	.	4r	.	4ccc\	.
.	.	.	8d/	.	.	.	8dd\	.	.	.	.	.	.	.	.	.	.	8dd\J	.	.	.	.	.	.	.	.	.	.	.	.	.	.	.	.
!	!	!	!	!	!	!LO:DY:a	!	!	!	!	!	!	!	!	!	!	!	!	!	!	!	!	!	!	!	!	!	!	!	!	!	!	!	!
4r	.	.	8e-/	.	4c/ 4e-	<[	8ee-\)	.	.	.	.	.	.	.	.	.	.	8ee-\L	-um	.	.	.	.	.	.	.	4c\	.	4cc\	.	4ee-\	.	4eee-\	.
.	.	.	8g/J	.	.	.	8gg\J	.	.	.	.	.	.	.	.	.	.	8gg\J)	.	.	.	.	.	.	.	.	.	.	.	.	.	.	.	.
!	!	!	!	!	!LO:LB:g=original	!	!	!	!	!	!	!	!	!	!	!	!	!	!	!	!	!	!	!	!	!	!	!	!	!	!	!	!	!
=14	=14	=14	=14	=14	=14	=14	=14	=14	=14	=14	=14	=14	=14	=14	=14	=14	=14	=14	=14	=14	=14	=14	=14	=14	=14	=14	=14	=14	=14	=14	=14	=14	=14	=14
!	!	!	!	!	!	!	!	!	!	!	!	!	!	!	!	!	!	!	!	!	!	!	!	!	!	!	!	!	!LO:TX:a:i:t=Dolce	!	!LO:TX:b:i:t=Dolce	!	!	!
4r	.	.	8r	.	8r	.	8r	.	(8.BB-\L	O-	.	2d^\	om-	.	2b-\	om-	.	(2ff\	Om-	.	2.r	.	2.r	.	2.r	.	2f\	.	2b-\	.	2dd\	.	2ddd\	.
.	.	.	8f\L	.	8B-/L 8d	.	(8ff\L	.	.	.	.	.	.	.	.	.	.	.	.	.	.	.	.	.	.	.	.	.	.	.	.	.	.	.
.	.	.	.	.	.	.	.	.	16D\Jk	.	.	.	.	.	.	.	.	.	.	.	.	.	.	.	.	.	.	.	.	.	.	.	.	.
4F\	.	.	8a\	.	8B-/ 8d	.	8aa\	.	4F\)	.	.	.	.	.	.	.	.	.	.	.	.	.	.	.	.	.	.	.	.	.	.	.	.	.
.	.	.	8cc\	.	8B-/ 8d	.	8ccc\	.	.	.	.	.	.	.	.	.	.	.	.	.	.	.	.	.	.	.	.	.	.	.	.	.	.	.
!	!	!	!	!	!	!	!	!	!	!	!	!	!	!	!	!	!	!	!	!	!	!	!	!	!	!	!	!	!	!	!LO:TX:a:i:t=Solo	!	!	!
4FF/	.	.	8ee-\	.	8c/ 8e-	.	8eee-\	.	4FF/	-mni-	.	4e-\	-ni-	.	4e-\	-ni-	.	4a\)	-ni-	.	.	.	.	.	.	.	4F\	.	4cc\	.	4ee-\	.	4eee-\	.
.	.	.	8a\J	.	8c/J 8e-	.	8aa\J)	.	.	.	.	.	.	.	.	.	.	.	.	.	.	.	.	.	.	.	.	.	.	.	.	.	.	.
=15	=15	=15	=15	=15	=15	=15	=15	=15	=15	=15	=15	=15	=15	=15	=15	=15	=15	=15	=15	=15	=15	=15	=15	=15	=15	=15	=15	=15	=15	=15	=15	=15	=15	=15
4BB-/	.	.	4b-\	.	4B-/ 4d	.	4bb-\	.	4BB-/	-um	.	4d\	-um	.	4d\	-um	.	4b-\	-um	.	2.r	.	2.r	.	2.r	.	4B-\	.	((16b-\LL	.	(16dd\LL	.	4ddd\	.
.	.	.	.	.	.	.	.	.	.	.	.	.	.	.	.	.	.	.	.	.	.	.	.	.	.	.	.	.	16dd\)	.	16bb-\	.	.	.
.	.	.	.	.	.	.	.	.	.	.	.	.	.	.	.	.	.	.	.	.	.	.	.	.	.	.	.	.	16bb-'\	.	16ddd'\	.	.	.
.	.	.	.	.	.	.	.	.	.	.	.	.	.	.	.	.	.	.	.	.	.	.	.	.	.	.	.	.	16aa'\JJ	.	16ccc'\JJ	.	.	.
4r	.	.	4r	.	4r	.	4r	.	4r	.	.	4r	.	.	4r	.	.	4r	.	.	.	.	.	.	.	.	4r	.	(16gg\LL	.	(16bb-\LL	.	4r	.
.	.	.	.	.	.	.	.	.	.	.	.	.	.	.	.	.	.	.	.	.	.	.	.	.	.	.	.	.	16ff\)	.	16aa\)	.	.	.
.	.	.	.	.	.	.	.	.	.	.	.	.	.	.	.	.	.	.	.	.	.	.	.	.	.	.	.	.	16ee-'\	.	16gg'\	.	.	.
.	.	.	.	.	.	.	.	.	.	.	.	.	.	.	.	.	.	.	.	.	.	.	.	.	.	.	.	.	16dd'\JJ	.	16ff'\JJ	.	.	.
4r	.	.	4r	.	4r	.	4r	.	4r	.	.	4r	.	.	4r	.	.	4r	.	.	.	.	.	.	.	.	4r	.	(16cc\LL	.	(16ee-\LL	.	4r	.
.	.	.	.	.	.	.	.	.	.	.	.	.	.	.	.	.	.	.	.	.	.	.	.	.	.	.	.	.	16b-\)	.	16dd\)	.	.	.
.	.	.	.	.	.	.	.	.	.	.	.	.	.	.	.	.	.	.	.	.	.	.	.	.	.	.	.	.	16a'\)	.	16cc'\	.	.	.
.	.	.	.	.	.	.	.	.	.	.	.	.	.	.	.	.	.	.	.	.	.	.	.	.	.	.	.	.	16g'\JJ	.	16b-'\JJ)	.	.	.
!	!	!	!LO:LB:g=original	!	!	!	!	!	!LO:LB:g=original	!	!	!	!	!	!	!	!	!LO:LB:g=original	!	!	!	!	!	!	!	!	!	!	!	!	!	!	!	!
!	!	!	!	!	!	!	!	!	!	!	!	!	!	!	!	!	!	!	!	!	!	!	!	!	!	!	!	!	!LO:LB:g=original	!	!LO:LB:g=original	!	!	!
=16	=16	=16	=16	=16	=16	=16	=16	=16	=16	=16	=16	=16	=16	=16	=16	=16	=16	=16	=16	=16	=16	=16	=16	=16	=16	=16	=16	=16	=16	=16	=16	=16	=16	=16
!	!	!	!	!	!	!LO:DY:b:t=p.	!	!	!	!	!	!	!	!	!	!	!	!	!	!	!	!	!	!	!	!	!	!	!	!	!	!	!	!
4F\	.	.	4f\	.	8.f/L	p	8a/L	p	2.r	.	.	2.r	.	.	2.r	.	.	2.r	.	.	2.r	.	2.r	.	2.r	.	4f\	.	(8f/L	.	(8a\L	.	8.aa\L	.
.	.	.	.	.	.	.	8g/J	.	.	.	.	.	.	.	.	.	.	.	.	.	.	.	.	.	.	.	.	.	8e-/J	.	8g\J)	.	.	.
.	.	.	.	.	16e-/Jk	.	.	.	.	.	.	.	.	.	.	.	.	.	.	.	.	.	.	.	.	.	.	.	.	.	.	.	16gg\Jk	.
4r	.	.	4r	.	4d/	.	4f/	.	.	.	.	.	.	.	.	.	.	.	.	.	.	.	.	.	.	.	4d\	.	4d'/)	.	(8f'/L	.	(8ff\L	.
.	.	.	.	.	.	.	.	.	.	.	.	.	.	.	.	.	.	.	.	.	.	.	.	.	.	.	.	.	.	.	8f#X/)	.	8ff#X\	.
4r	.	.	4r	.	4Bn/	.	4g/	.	.	.	.	.	.	.	.	.	.	.	.	.	.	.	.	.	.	.	4dn\	.	(8e-/L	.	(8g/	.	8gg\	.
.	.	.	.	.	.	.	.	.	.	.	.	.	.	.	.	.	.	.	.	.	.	.	.	.	.	.	.	.	8BX/J)	.	8d/J)	.	8dd\J)	.
=17	=17	=17	=17	=17	=17	=17	=17	=17	=17	=17	=17	=17	=17	=17	=17	=17	=17	=17	=17	=17	=17	=17	=17	=17	=17	=17	=17	=17	=17	=17	=17	=17	=17	=17
!	!	!	!	!	!	!	!	!	!LO:TX:a:t=4	!	!	!LO:TX:a:t=4	!	!	!LO:TX:a:t=4	!	!	!LO:TX:a:t=4	!	!	!	!	!	!	!	!	!	!	!	!	!	!	!	!
4c\	3_	pp	4cc\	.	4c/	.	(4e-/	.	2.r	.	.	2.r	.	.	2.r	.	.	2.r	.	.	2.r	.	2.r	.	2.r	.	4e-\	.	(8c/L	.	(8e-/L	.	(8ee-\L	.
.	.	.	.	.	.	.	.	.	.	.	.	.	.	.	.	.	.	.	.	.	.	.	.	.	.	.	.	.	8A/)	.	8c/)	.	8cc\	.
4F\	.	.	4f\	.	4A/	.	4f/)	.	.	.	.	.	.	.	.	.	.	.	.	.	.	.	.	.	.	.	4c\	.	(8d/	.	(8f/	.	8ff\	.
.	.	.	.	.	.	.	.	.	.	.	.	.	.	.	.	.	.	.	.	.	.	.	.	.	.	.	.	.	8c/)	.	8e-/J)	.	8ee-\J)	.
4B-\	3	.	4b-\	.	4B-/	.	4d/	.	.	.	.	.	.	.	.	.	.	.	.	.	.	.	.	.	.	.	4d\	.	(8B-/	.	(16d/LL	.	(16dd\LL	.
.	.	.	.	.	.	.	.	.	.	.	.	.	.	.	.	.	.	.	.	.	.	.	.	.	.	.	.	.	.	.	16f/	.	16ff\	.
.	.	.	.	.	.	.	.	.	.	.	.	.	.	.	.	.	.	.	.	.	.	.	.	.	.	.	.	.	8d/J)	.	16b-'/	.	16bb-\	.
.	.	.	.	.	.	.	.	.	.	.	.	.	.	.	.	.	.	.	.	.	.	.	.	.	.	.	.	.	.	.	16dd'/JJ)	.	16ddd\JJ)	.
!	!	!	!	!	!	!	!	!	!	!	!	!	!	!	!	!	!	!	!	!	!	!	!	!	!	!	!	!	!	!	!	!	!LO:LB:g=original	!
!	!	!	!	!	!	!	!	!	!	!	!	!	!	!	!	!	!	!	!	!	!	!	!	!	!	!	!LO:LB:g=original	!	!	!	!	!	!	!
=18	=18	=18	=18	=18	=18	=18	=18	=18	=18	=18	=18	=18	=18	=18	=18	=18	=18	=18	=18	=18	=18	=18	=18	=18	=18	=18	=18	=18	=18	=18	=18	=18	=18	=18
4G\	6_ 4_	.	4g\	.	2e-/	.	2g/	.	2.r	.	.	2.r	.	.	2.r	.	.	2.r	.	.	2.r	.	2.r	.	2.r	.	4e-\	.	4e-/	.	16r	.	(8gg\L	.
.	.	.	.	.	.	.	.	.	.	.	.	.	.	.	.	.	.	.	.	.	.	.	.	.	.	.	.	.	.	.	(16g\LL	.	.	.
.	.	.	.	.	.	.	.	.	.	.	.	.	.	.	.	.	.	.	.	.	.	.	.	.	.	.	.	.	.	.	16a'\	.	16aa\L	.
.	.	.	.	.	.	.	.	.	.	.	.	.	.	.	.	.	.	.	.	.	.	.	.	.	.	.	.	.	.	.	16bX'\JJ	.	16bbn\JJ	.
4E-\	.	.	4e-\	.	.	.	.	.	.	.	.	.	.	.	.	.	.	.	.	.	.	.	.	.	.	.	4E-\	.	4r	.	16cc\LL	.	16ccc\LL	.
.	.	.	.	.	.	.	.	.	.	.	.	.	.	.	.	.	.	.	.	.	.	.	.	.	.	.	.	.	.	.	16dd\	.	16ddd\	.
.	.	.	.	.	.	.	.	.	.	.	.	.	.	.	.	.	.	.	.	.	.	.	.	.	.	.	.	.	.	.	16ee-'\	.	16eee-\	.
.	.	.	.	.	.	.	.	.	.	.	.	.	.	.	.	.	.	.	.	.	.	.	.	.	.	.	.	.	.	.	16ff'\JJ)	.	16fff\JJ	.
4r	.	.	4r	.	4r	.	4r	.	.	.	.	.	.	.	.	.	.	.	.	.	.	.	.	.	.	.	8e-\L	.	8r	.	8gg\L	.	8ggg\L)	.
.	.	.	.	.	.	.	.	.	.	.	.	.	.	.	.	.	.	.	.	.	.	.	.	.	.	.	8en\J	.	8cc#X\	.	8eeX\J	.	8eeen\J	.
!LO:LB:g=original	!	!	!	!	!	!	!	!	!	!	!	!	!	!	!	!	!	!	!	!	!	!	!	!	!	!	!	!	!	!	!	!	!	!
=19	=19	=19	=19	=19	=19	=19	=19	=19	=19	=19	=19	=19	=19	=19	=19	=19	=19	=19	=19	=19	=19	=19	=19	=19	=19	=19	=19	=19	=19	=19	=19	=19	=19	=19
4FF/	.	.	4f\	.	4d/	.	4f/	.	2.r	.	.	2.r	.	.	2.r	.	.	2.r	.	.	2.r	.	2.r	.	2.r	.	4f\	.	4dd\	.	(16ff\LL	.	4fff\	.
.	.	.	.	.	.	.	.	.	.	.	.	.	.	.	.	.	.	.	.	.	.	.	.	.	.	.	.	.	.	.	16ee-\)	.	.	.
.	.	.	.	.	.	.	.	.	.	.	.	.	.	.	.	.	.	.	.	.	.	.	.	.	.	.	.	.	.	.	16gg'\	.	.	.
.	.	.	.	.	.	.	.	.	.	.	.	.	.	.	.	.	.	.	.	.	.	.	.	.	.	.	.	.	.	.	16ff'\JJ	.	.	.
4F\	.	.	4f\	.	4r	.	4r	.	.	.	.	.	.	.	.	.	.	.	.	.	.	.	.	.	.	.	4r	.	4r	.	(16eeX\LL	.	(16eeen\LL	.
.	.	.	.	.	.	.	.	.	.	.	.	.	.	.	.	.	.	.	.	.	.	.	.	.	.	.	.	.	.	.	16ff\)	.	16fff\	.
.	.	.	.	.	.	.	.	.	.	.	.	.	.	.	.	.	.	.	.	.	.	.	.	.	.	.	.	.	.	.	16ee-'\	.	16eee-X\	.
.	.	.	.	.	.	.	.	.	.	.	.	.	.	.	.	.	.	.	.	.	.	.	.	.	.	.	.	.	.	.	16cc'\JJ	.	16ccc\JJ)	.
4r	.	.	4r	.	4A/	.	4c/ 4e-	.	.	.	.	.	.	.	.	.	.	.	.	.	.	.	.	.	.	.	4e-\	.	4e-/	.	(16a\LL	.	16aa\LL	.
.	.	.	.	.	.	.	.	.	.	.	.	.	.	.	.	.	.	.	.	.	.	.	.	.	.	.	.	.	.	.	16f\	.	16ff\	.
.	.	.	.	.	.	.	.	.	.	.	.	.	.	.	.	.	.	.	.	.	.	.	.	.	.	.	.	.	.	.	16e-'\)	.	16ee-\	.
.	.	.	.	.	.	.	.	.	.	.	.	.	.	.	.	.	.	.	.	.	.	.	.	.	.	.	.	.	.	.	16c'\JJ	.	16cc\JJ	.
!	!	!	!	!	!	!	!LO:LB:g=original	!	!	!	!	!LO:LB:g=original	!	!	!LO:LB:g=original	!	!	!	!	!	!	!	!	!	!	!	!	!	!	!	!	!	!	!
!	!	!	!	!	!	!	!	!	!	!	!	!	!	!	!	!	!	!	!	!	!	!	!	!	!	!	!	!	!	!	!LO:LB:g=original	!	!	!
=20	=20	=20	=20	=20	=20	=20	=20	=20	=20	=20	=20	=20	=20	=20	=20	=20	=20	=20	=20	=20	=20	=20	=20	=20	=20	=20	=20	=20	=20	=20	=20	=20	=20	=20
!	!	!LO:DY:b:t=fo	!	!LO:DY:b:t=fo	!	!	!	!	!	!	!	!	!	!	!	!	!	!	!	!	!	!	!	!	!	!	!	!	!	!	!	!	!	!
4B-\	.	f	4b-\	f	4B-/	.	4d/	.	4r	.	.	4r	.	.	8d\	Et	.	8b-\	Et	.	2.r	.	2.r	.	2.r	.	4d\	.	4d/	.	4B-/	.	4b-\	.
.	.	.	.	.	.	.	.	.	.	.	.	.	.	.	8d\	in	.	8b-\	in	.	.	.	.	.	.	.	.	.	.	.	.	.	.	.
!	!	!	!	!	!	!	!	!	!	!	!	!	!	!	!LO:TX:t=P:3::problem= ósemka przerobiona na ćwierćnutę&colon; skreślona chorągiewka	!	!	!	!	!	!	!	!	!	!	!	!	!	!	!	!	!	!	!
4BB-/	.	.	4B-/	.	4d/	.	4b-\	.	8BB-/L	et	.	4f\	et	.	4d\	u-	.	4b-\	u-	.	.	.	.	.	.	.	8B-\L	.	4d/	.	4b-\	.	4bb-\	.
.	.	.	.	.	.	.	.	.	8C/J	.	.	.	.	.	.	.	.	.	.	.	.	.	.	.	.	.	8c\	.	.	.	.	.	.	.
4r	.	.	4r	.	4d/	.	4b-\	.	8D/L	in	.	4f\	in	.	4d\	-nu(m)	.	4b-\	-num	.	.	.	.	.	.	.	8d\	.	4r	.	4r	.	4r	.
.	.	.	.	.	.	.	.	.	8En/J	.	.	.	.	.	.	.	.	.	.	.	.	.	.	.	.	.	8en\J	.	.	.	.	.	.	.
=21	=21	=21	=21	=21	=21	=21	=21	=21	=21	=21	=21	=21	=21	=21	=21	=21	=21	=21	=21	=21	=21	=21	=21	=21	=21	=21	=21	=21	=21	=21	=21	=21	=21	=21
4r	.	.	4r	.	4r	.	4r	.	4F\	u-	.	4f\	un-	.	8d\L	Do-	.	8b-\L	Do-	.	2.r	.	2.r	.	2.r	.	4f\	.	4r	.	4r	.	4r	.
.	.	.	.	.	.	.	.	.	.	.	.	.	.	.	8e-\J	-mi-	.	8a\J	-mi-	.	.	.	.	.	.	.	.	.	.	.	.	.	.	.
8F\L	5_ 3_	>	8f\L	.	4e-/	.	4a\	.	4F\	-nu(m)	.	4f\	-nu(m)	.	4e-\	-nu(m)	.	4a\	-nu(m)	.	.	.	.	.	.	.	4F\	.	8r	.	8r	.	8r	.
8G\	.	.	8a\	.	.	.	.	.	.	.	.	.	.	.	.	.	.	.	.	.	.	.	.	.	.	.	.	.	8f/L	.	8a\L	.	8ccc\L	.
8A\	.	]	8g\	.	4e-/	.	4a\	.	4r	.	.	4r	.	.	4r	.	.	4r	.	.	.	.	.	.	.	.	4r	.	8f/	.	8a\	.	8ccc\	.
8F\J	.	.	8f\J	.	.	.	.	.	.	.	.	.	.	.	.	.	.	.	.	.	.	.	.	.	.	.	.	.	8f/J	.	8a\J	.	8ccc\J	.
!	!	!	!	!	!LO:LB:g=original	!	!	!	!	!	!	!	!	!	!	!	!	!	!	!	!	!	!	!	!	!	!	!	!	!	!	!	!	!
=22	=22	=22	=22	=22	=22	=22	=22	=22	=22	=22	=22	=22	=22	=22	=22	=22	=22	=22	=22	=22	=22	=22	=22	=22	=22	=22	=22	=22	=22	=22	=22	=22	=22	=22
4B-\	6 3	.	4b-\	.	4f/	.	8r	.	(4B-\	Je-	.	(4d\	Je-	.	2f\	Je-	.	2a-X\	Je-	.	2.r	.	2.r	.	2.r	.	4r	.	4f/	.	4a-X\	.	4ddd\	.
.	.	.	.	.	.	.	(8a-X\L	.	.	.	.	.	.	.	.	.	.	.	.	.	.	.	.	.	.	.	.	.	.	.	.	.	.	.
4r	.	.	4r	.	8a-X/L	.	8ff\	.	4B-\)	.	.	4d\)	.	.	.	.	.	.	.	.	.	.	.	.	.	.	8B-\L	.	4r	.	4r	.	4r	.
.	.	.	.	.	8f/	.	8dd\)	.	.	.	.	.	.	.	.	.	.	.	.	.	.	.	.	.	.	.	8c\	.	.	.	.	.	.	.
4r	.	.	4r	.	8g/	.	8b-\	.	4D/	-sum	.	4d\	-sum	.	4f\	-sum	.	4a-\	-su(m)	.	.	.	.	.	.	.	8d\	.	4r	.	4r	.	4r	.
.	.	.	.	.	8f/J	.	8a-\J	.	.	.	.	.	.	.	.	.	.	.	.	.	.	.	.	.	.	.	8B-\J	.	.	.	.	.	.	.
!	!	!	!	!	!	!	!	!	!	!	!	!	!	!	!	!	!	!	!	!	!	!	!	!	!	!	!	!	!LO:LB:g=original	!	!	!	!	!
=23	=23	=23	=23	=23	=23	=23	=23	=23	=23	=23	=23	=23	=23	=23	=23	=23	=23	=23	=23	=23	=23	=23	=23	=23	=23	=23	=23	=23	=23	=23	=23	=23	=23	=23
8E-\L	5_ 3_	.	8e-\L	.	8f/L	.	8a/L	.	4E-\	Chri-	.	(8d\L	Chri-	.	8f\L	Chri-	.	8a\L	Chri-	.	2.r	.	2.r	.	2.r	.	4e-\	.	4r	.	4r	.	4r	.
8D\	.	.	8d\	.	8e-/J	.	8g/J	.	.	.	.	8e-\J)	.	.	8e-\J	.	.	8g\J	.	.	.	.	.	.	.	.	.	.	.	.	.	.	.	.
8E-\	.	.	8e-\	.	2e-/	.	2g/	.	4E-\	-stu(m)	.	4e-\	-stu(m)	.	4e-\	-stum	.	4g\	-stu(m)	.	.	.	.	.	.	.	4E-\	.	8r	.	8r	.	8r	.
8B-\	.	.	8b-\	.	.	.	.	.	.	.	.	.	.	.	.	.	.	.	.	.	.	.	.	.	.	.	.	.	8e-/L	.	8g\L	.	8bb-\L	.
8G\	.	.	8g\	.	.	.	.	.	4r	.	.	4r	.	.	4r	.	.	4r	.	.	.	.	.	.	.	.	4r	.	8e-/	.	8g\	.	8bb-\	.
8E-\J	.	.	8e-\J	.	.	.	.	.	.	.	.	.	.	.	.	.	.	.	.	.	.	.	.	.	.	.	.	.	8e-/J	.	8g\J	.	8bb-\J	.
=24	=24	=24	=24	=24	=24	=24	=24	=24	=24	=24	=24	=24	=24	=24	=24	=24	=24	=24	=24	=24	=24	=24	=24	=24	=24	=24	=24	=24	=24	=24	=24	=24	=24	=24
!	!	!	!	!	!	!	!	!	!	!	!	!	!	!	!	!	!LO:DY:b:t=for	!	!	!	!	!	!	!	!	!	!	!	!	!	!	!	!	!
!	!	!LO:DY:b:t=ffo	!	!	!	!	!LO:DY:b:t=ffo	!	!LO:DY:b:t=for	!	!	!	!	!	!	!	!	!	!	!	!	!	!	!	!LO:DY:b:t=ffo	!	!	!	!	!	!	!	!	!
!	!	!	!	!	!	!	!	!	!	!	!	!	!	!	!	!	!	!	!	!LO:DY:b:t=fo	!	!	!	!	!	!	!	!	!	!	!	!	!	!
8.B-\L	.	ff	8.b-X\L	.	8.b-\L	ff	8.b-\L	ff	4B-\	fi-	f	(4B-\	fi-	.	4b-\	Fi-	f	4b-\	Fi-	f	2.r	.	2.r	.	2.r	.	4BB-\	ff	(4b-\	.	4b-\	ff	4bb-\	ff
16B-\K	.	.	16b-\K	.	16b-\K	.	16b-\Jk	.	.	.	.	.	.	.	.	.	.	.	.	.	.	.	.	.	.	.	.	.	.	.	.	.	.	.
8.A\	.	.	8.an\	.	8.a\	.	8.cc\L	.	4A\	-li-	.	4c\)	-li-	.	4a\	-li-	.	4cc\	-li-	.	.	.	.	.	.	.	4C\	.	4a\	.	4cc\	.	4aa\	.
16A\K	.	.	16a\K	.	16a\K	.	16cc\K	.	.	.	.	.	.	.	.	.	.	.	.	.	.	.	.	.	.	.	.	.	.	.	.	.	.	.
!	!	!	!LO:TX:t=P:problem=wysokość nut 5-6 korygowana, \nnuty podpisane enharmonicznie "gis-gis"	!	!	!	!	!	!	!	!	!	!	!	!	!	!	!	!	!	!	!	!	!	!	!	!	!	!	!	!	!	!	!
8.A-X\	4_	.	8.a-X\	.	8.a-X\	.	8.dd\	.	4A-X\	-um	.	4d\	-u(m)	.	4a-X\	-um	.	4dd\	-u(m)	.	.	.	.	.	.	.	4D\	.	4a-X\)	.	4dd\	.	4gg#X\	.
16A-\Jk	.	.	16a-\Jk	.	16a-\Jk	.	16dd\Jk	.	.	.	.	.	.	.	.	.	.	.	.	.	.	.	.	.	.	.	.	.	.	.	.	.	.	.
!	!	!	!LO:LB:g=original	!	!	!	!	!	!	!	!	!	!	!	!	!	!	!	!	!	!	!	!	!	!	!	!	!	!	!	!	!	!LO:LB:g=original	!
=25	=25	=25	=25	=25	=25	=25	=25	=25	=25	=25	=25	=25	=25	=25	=25	=25	=25	=25	=25	=25	=25	=25	=25	=25	=25	=25	=25	=25	=25	=25	=25	=25	=25	=25
8.G\L	.	.	8.e-\L	.	8.g/L	.	8.ee-\L	.	(4G\	De-	.	(4e-\	De-	.	(4g\	De-	.	(4ee-\	De-	.	2.r	.	2.r	.	2.r	.	4E-\	.	(4g/	.	4ee-\	.	4ggn\	.
16G\K	.	.	16e-\K	.	16g/K	.	16ee-\K	.	.	.	.	.	.	.	.	.	.	.	.	.	.	.	.	.	.	.	.	.	.	.	.	.	.	.
8.F\	.	.	8.f\	.	8.f/	.	8.ff\	.	4F\)	.	.	4d\)	.	.	4f\)	.	.	4ff\)	.	.	.	.	.	.	.	.	4D\	.	4f/	.	4ff\	.	4ff\	.
16F\K	.	.	16f\K	.	16f/K	.	16ff\K	.	.	.	.	.	.	.	.	.	.	.	.	.	.	.	.	.	.	.	.	.	.	.	.	.	.	.
8.E-\	.	.	8.g\	.	8.e-/	.	8.gg\	.	4B-\	-i	.	4e-\	-i	.	4e-\	-i	.	4gg\	-i	.	.	.	.	.	.	.	4E-\	.	4e-/)	.	4gg\	.	4eee-\	.
16E-\Jk	.	.	16g\Jk	.	16e-/Jk	.	16gg\Jk	.	.	.	.	.	.	.	.	.	.	.	.	.	.	.	.	.	.	.	.	.	.	.	.	.	.	.
!	!	!	!	!	!	!	!	!	!LO:LB:g=original	!	!	!	!	!	!LO:LB:g=original	!	!	!	!	!	!	!	!	!	!	!	!	!	!	!	!	!	!	!
=26	=26	=26	=26	=26	=26	=26	=26	=26	=26	=26	=26	=26	=26	=26	=26	=26	=26	=26	=26	=26	=26	=26	=26	=26	=26	=26	=26	=26	=26	=26	=26	=26	=26	=26
2D\	-5 3	.	2d\	.	2B-/ 2d	.	12aa-X\L	.	2B-\	u-	.	2f^\	u-	.	2d\	u-	.	2aa-X^\	u-	.	2BB-^/	.	2B-^/	.	2b-^\	.	2F\	.	2d/	.	2aa-X\	rfz	2ddd\	.
.	.	.	.	.	.	.	12ff\	.	.	.	.	.	.	.	.	.	.	.	.	.	.	.	.	.	.	.	.	.	.	.	.	.	.	.
.	.	.	.	.	.	.	12dd\J	.	.	.	.	.	.	.	.	.	.	.	.	.	.	.	.	.	.	.	.	.	.	.	.	.	.	.
.	.	.	.	.	.	.	12b-/L	.	.	.	.	.	.	.	.	.	.	.	.	.	.	.	.	.	.	.	.	.	.	.	.	.	.	.
.	.	.	.	.	.	.	12a/	.	.	.	.	.	.	.	.	.	.	.	.	.	.	.	.	.	.	.	.	.	.	.	.	.	.	.
.	.	.	.	.	.	.	12f/J	.	.	.	.	.	.	.	.	.	.	.	.	.	.	.	.	.	.	.	.	.	.	.	.	.	.	.
8E-\L	.	.	8e-\L	.	4G/ 4e-	.	(16e-/LL	.	4B-\	-ni-	.	4e-\	-ni-	.	4e-\	-ni-	.	4gg\	-ni-	.	4r	.	4r	.	4r	.	4E-\	.	8e-/L	.	4gg\	.	4eee-\	.
.	.	.	.	.	.	.	16g/	.	.	.	.	.	.	.	.	.	.	.	.	.	.	.	.	.	.	.	.	.	.	.	.	.	.	.
8G\J	.	.	8g\J	.	.	.	16b-/	.	.	.	.	.	.	.	.	.	.	.	.	.	.	.	.	.	.	.	.	.	8g/J	.	.	.	.	.
.	.	.	.	.	.	.	16ee-/JJ)	.	.	.	.	.	.	.	.	.	.	.	.	.	.	.	.	.	.	.	.	.	.	.	.	.	.	.
!	!	!	!	!	!	!	!LO:LB:g=original	!	!	!	!	!LO:LB:g=original	!	!	!	!	!	!	!LO:LB:g=original	!	!	!	!	!	!	!	!	!	!	!	!	!	!	!
!	!	!	!	!	!	!	!	!	!	!	!	!	!	!	!	!	!	!	!	!	!	!	!	!	!	!	!LO:LB:g=original	!	!	!	!	!	!	!
=27	=27	=27	=27	=27	=27	=27	=27	=27	=27	=27	=27	=27	=27	=27	=27	=27	=27	=27	=27	=27	=27	=27	=27	=27	=27	=27	=27	=27	=27	=27	=27	=27	=27	=27
4B-\	6 4	.	4b-\	.	4G/ 4e-	.	4gg\	.	8B-\	-ge-	.	8e-\	-ge-	.	8b-\	-ge-	.	8gg\	-ge-	.	2.r	.	2.r	.	2.r	.	8.E-\L	.	4b-\	.	4gg\	.	4eee-\	.
.	.	.	.	.	.	.	.	.	8B-\	-ni-	.	8e-\	-ni-	.	8b-\	-ni-	.	8gg\	-ni-	.	.	.	.	.	.	.	.	.	.	.	.	.	.	.
.	.	.	.	.	.	.	.	.	.	.	.	.	.	.	.	.	.	.	.	.	.	.	.	.	.	.	16G\Jk	.	.	.	.	.	.	.
4BB-/	5 3	.	4B-/	.	4B-/ 4d	.	4ff\	.	4F\	-tu(m)	.	4d\	-tum	.	4b-\	-tum	.	4ff\	-tu(m)	.	.	.	.	.	.	.	4c\	.	8r	.	8r	.	8r	.
.	.	.	.	.	.	.	.	.	.	.	.	.	.	.	.	.	.	.	.	.	.	.	.	.	.	.	.	.	8b-\L	.	8ff\L	.	8bb-\L	.
4r	.	.	4r	.	4r	.	4r	.	4r	.	.	4r	.	.	4r	.	.	4r	.	.	.	.	.	.	.	.	4r	.	8b-\	.	8ff\	.	8bb-\	.
.	.	.	.	.	.	.	.	.	.	.	.	.	.	.	.	.	.	.	.	.	.	.	.	.	.	.	.	.	8b-\J	.	8ff\J	.	8bb-\J	.
!	!	!	!	!	!	!	!	!	!	!	!	!	!	!	!	!	!	!	!	!	!	!	!	!	!	!	!	!	!	!	!LO:LB:g=original	!	!	!
=28	=28	=28	=28	=28	=28	=28	=28	=28	=28	=28	=28	=28	=28	=28	=28	=28	=28	=28	=28	=28	=28	=28	=28	=28	=28	=28	=28	=28	=28	=28	=28	=28	=28	=28
!	!	!	!LO:TX:a:i:t=Dolce	!	!	!	!	!	!	!	!	!	!	!	!	!	!	!	!	!	!	!	!LO:TX:a:t=1	!	!LO:TX:a:t=1	!	!	!	!	!	!	!	!	!
!	!	!	!	!	!	!	!LO:TX:t=P:problem=problem klamry łukowej	!	!	!	!	!	!	!	!	!	!	!	!	!	!	!	!	!	!	!	!	!	!	!	!	!	!	!
4G\	7_ 5_ n3_	.	(12G/L	.	12Bn/L	.	12g\L	.	8Bn\	et	.	8g\	et	.	8g\	et	.	8dd\	et	.	4BB-/	p	4d/	p	4dd\	p	4Bn\	.	4dd\	.	4ff\	.	4bbn\	.
.	.	.	12Bn/)	.	12d/	.	12bn\	.	.	.	.	.	.	.	.	.	.	.	.	.	.	.	.	.	.	.	.	.	.	.	.	.	.	.
.	.	.	.	.	.	.	.	.	8B\	xe	.	8g\	ex	.	8g\	ex	.	8dd\	ex	.	.	.	.	.	.	.	.	.	.	.	.	.	.	.
.	.	.	12d/J	.	12f/J	.	12dd\J	.	.	.	.	.	.	.	.	.	.	.	.	.	.	.	.	.	.	.	.	.	.	.	.	.	.	.
!	!	!	!	!	!	!	!	!	!	!	!	!	!	!	!	!	!	!	!	!	!	!	!	!	!	!	!	!	!	!	!	!	!	!
!	!	!	!	!	!	!	!LO:TX:t=P:problem=problem klamry łukowej	!	!	!	!	!	!	!	!	!	!	!	!	!	!	!	!	!	!	!	!	!	!	!	!	!	!	!
*	*	*	*	*	*rep	*	*	*	*	*	*	*	*	*	*	*	*	*	*	*	*	*	*	*	*	*	*	*	*	*	*	*	*	*
4Bn\	.	.	(12g\L	.	12B/L	.	12gg\L	.	4B\	pa-	.	4g\	pa-	.	4g\	pa-	.	4dd\	pa-	.	4BB-/	.	4d/	.	4dd\	.	4G\	.	4r	.	4r	.	4r	.
.	.	.	12b-\)	.	12d/	.	12bb-\	.	.	.	.	.	.	.	.	.	.	.	.	.	.	.	.	.	.	.	.	.	.	.	.	.	.	.
.	.	.	12dd\J	.	12f/J	.	12ddd\J	.	.	.	.	.	.	.	.	.	.	.	.	.	.	.	.	.	.	.	.	.	.	.	.	.	.	.
*	*	*	*	*	*Xrep	*	*	*	*	*	*	*	*	*	*	*	*	*	*	*	*	*	*	*	*	*	*	*	*	*	*	*	*	*
*	*	*	*	*	*rep	*	*	*	*	*	*	*	*	*	*	*	*	*	*	*	*	*	*	*	*	*	*	*	*	*	*	*	*	*
4G\	.	.	8.g\L	.	12B/L	.	8.ggg\L	.	4G\	-tre	.	4g\	-tre	.	4g\	-tre	.	4dd\	-tre	.	4r	.	4r	.	4r	.	4r	.	4r	.	4r	.	4r	.
.	.	.	.	.	12d/	.	.	.	.	.	.	.	.	.	.	.	.	.	.	.	.	.	.	.	.	.	.	.	.	.	.	.	.	.
.	.	.	.	.	12f/J	.	.	.	.	.	.	.	.	.	.	.	.	.	.	.	.	.	.	.	.	.	.	.	.	.	.	.	.	.
.	.	.	16f\Jk	.	.	.	16fff\Jk	.	.	.	.	.	.	.	.	.	.	.	.	.	.	.	.	.	.	.	.	.	.	.	.	.	.	.
*	*	*	*	*	*Xrep	*	*	*	*	*	*	*	*	*	*	*	*	*	*	*	*	*	*	*	*	*	*	*	*	*	*	*	*	*
!LO:LB:g=original	!	!	!	!	!LO:LB:g=original	!	!	!	!	!	!	!	!	!	!	!	!	!	!	!LO:LB:g=original	!	!	!	!LO:LB:g=original	!	!	!	!	!	!	!	!	!	!
=29	=29	=29	=29	=29	=29	=29	=29	=29	=29	=29	=29	=29	=29	=29	=29	=29	=29	=29	=29	=29	=29	=29	=29	=29	=29	=29	=29	=29	=29	=29	=29	=29	=29	=29
!	!	!	!	!	!	!	!	!	!	!	!	!	!	!	!	!	!	!	!	!	!	!	!	!	!	!	!	!	!	!	!LO:TX:a:i:t=dolce	!	!	!
4c\	.	.	8.dd\L	.	8.c/L	.	8.ddd\L	.	4c\	na-	.	4e-\	na-	.	4g\	na-	.	4ee-\	na-	.	2.r	.	2.r	.	2.r	.	4c\	.	4cc\	.	4ee-\	.	4ccc\	.
.	.	.	16ee-\Jk	.	16d/Jk	.	16eee-\Jk	.	.	.	.	.	.	.	.	.	.	.	.	.	.	.	.	.	.	.	.	.	.	.	.	.	.	.
4C/	.	.	4cc\	.	4e-/	.	4ccc\	.	4C/	-tum	.	4c\	-tum	.	4g\	-tum	.	4ee-\	-tu(m)	.	.	.	.	.	.	.	8r	.	8r	.	8r	.	8r	.
.	.	.	.	.	.	.	.	.	.	.	.	.	.	.	.	.	.	.	.	.	.	.	.	.	.	.	8C\L	.	(8ee-\L	p	8gg\L	p	8ccc\L	.
4r	.	.	4r	.	4r	.	4r	.	4r	.	.	4r	.	.	4r	.	.	4r	.	.	.	.	.	.	.	.	8D\	.	8dd\	.	8ff\	.	8ddd\	.
.	.	.	.	.	.	.	.	.	.	.	.	.	.	.	.	.	.	.	.	.	.	.	.	.	.	.	8E-\J	.	8cc\J)	.	8ee-\J	.	8eee-\J	.
!	!	!	!	!	!	!	!	!	!	!	!	!	!	!	!	!	!	!	!	!	!	!	!LO:LB:g=original	!	!	!	!	!	!	!	!	!	!	!
=30	=30	=30	=30	=30	=30	=30	=30	=30	=30	=30	=30	=30	=30	=30	=30	=30	=30	=30	=30	=30	=30	=30	=30	=30	=30	=30	=30	=30	=30	=30	=30	=30	=30	=30
!	!	!	!	!	!	!	!	!	!	!	!	!	!	!	!	!	!	!	!	!	!LO:TX:a:t=1	!	!LO:TX:a:t=1	!LO:DY:a	!LO:TX:a:t=1	!	!	!	!	!	!	!	!	!
4F\	7_ 5_ 3_	.	12F/L	.	12A/L	.	12f\L	.	8A\	an-	.	8e-\	an-	.	8f\	an-	.	8cc\	an-	.	4FF/	.	4cc\	>	4f/	.	4F\	.	4cc\	.	4ee-\	.	4fff\	.
.	.	.	12A/	.	12c/	.	12a\	.	.	.	.	.	.	.	.	.	.	.	.	.	.	.	.	.	.	.	.	.	.	.	.	.	.	.
.	.	.	.	.	.	.	.	.	8A\	-te	.	8e-\	-te	.	8f\	-te	.	8cc\	-te	.	.	.	.	.	.	.	.	.	.	.	.	.	.	.
.	.	.	12c/J	.	12f/J	.	12cc\J	.	.	.	.	.	.	.	.	.	.	.	.	.	.	.	.	.	.	.	.	.	.	.	.	.	.	.
!	!	!	!	!	!	!	!	!	!	!	!	!	!	!	!	!	!	!	!	!	!	!	!	!	!	!	!	!	!	!	!	!	!	!
!	!	!	!	!	!	!	!LO:TX:t=P:problem=problem klamry łukowej	!	!	!	!	!	!	!	!	!	!	!	!	!	!	!	!	!	!	!	!	!	!	!	!	!	!	!
*	*	*	*	*	*rep	*	*	*	*	*	*	*	*	*	*	*	*	*	*	*	*	*	*	*	*	*	*	*	*	*	*	*	*	*
4A\	.	.	12f\L	.	12A/L	.	12ff\L	.	4A\	o-	.	4e-\	om-	.	4f\	om-	.	4cc\	om-	.	4FF/	.	4cc\	]	4f/	.	4f\	.	4r	.	4r	.	4r	.
.	.	.	12a\	.	12c/	.	12aa\	.	.	.	.	.	.	.	.	.	.	.	.	.	.	.	.	.	.	.	.	.	.	.	.	.	.	.
.	.	.	12cc\J	.	12f/J	.	12ccc`\J	.	.	.	.	.	.	.	.	.	.	.	.	.	.	.	.	.	.	.	.	.	.	.	.	.	.	.
*	*	*	*	*	*Xrep	*	*	*	*	*	*	*	*	*	*	*	*	*	*	*	*	*	*	*	*	*	*	*	*	*	*	*	*	*
*	*	*	*	*	*rep	*	*	*	*	*	*	*	*	*	*	*	*	*	*	*	*	*	*	*	*	*	*	*	*	*	*	*	*	*
4F\	.	.	8.f\L	.	12A/L	.	8.fff\L	.	8F\	-mni-	.	8e-\	-ni-	.	8f\	-ni-	.	8cc\	-ni-	.	4r	.	4r	.	4r	.	4r	.	4r	.	4r	.	4r	.
.	.	.	.	.	12c/	.	.	.	.	.	.	.	.	.	.	.	.	.	.	.	.	.	.	.	.	.	.	.	.	.	.	.	.	.
.	.	.	.	.	.	.	.	.	8A\	-a	.	8e-\	-a	.	8f\	-a	.	8cc\	-a	.	.	.	.	.	.	.	.	.	.	.	.	.	.	.
.	.	.	.	.	12f/J	.	.	.	.	.	.	.	.	.	.	.	.	.	.	.	.	.	.	.	.	.	.	.	.	.	.	.	.	.
.	.	.	16e-\Jk	.	.	.	16eee-\Jk	.	.	.	.	.	.	.	.	.	.	.	.	.	.	.	.	.	.	.	.	.	.	.	.	.	.	.
*	*	*	*	*	*Xrep	*	*	*	*	*	*	*	*	*	*	*	*	*	*	*	*	*	*	*	*	*	*	*	*	*	*	*	*	*
!	!	!	!LO:LB:g=original	!	!	!	!	!	!	!	!	!	!	!	!LO:LB:g=original	!	!	!	!	!	!	!	!	!	!	!	!LO:LB:g=original	!	!	!	!	!	!	!
=31	=31	=31	=31	=31	=31	=31	=31	=31	=31	=31	=31	=31	=31	=31	=31	=31	=31	=31	=31	=31	=31	=31	=31	=31	=31	=31	=31	=31	=31	=31	=31	=31	=31	=31
4B-\	.	.	8dd-X\L	.	8.B-/L	.	8ddd-X\L	.	8B-\	se-	.	8d\	se-	.	8f\	sae-	.	8dd\	se-	.	4BB-/	.	4d/	>	4b-\	.	4B-\	.	4b-\	.	4dd\	.	4bb-X\	.
.	.	.	8ddn\J	.	.	.	8dddn\J	.	8E-\	-cu-	.	8f\	-cu-	.	8f\	-cu-	.	8dd\	-cu-	.	.	.	.	.	.	.	.	.	.	.	.	.	.	.
.	.	.	.	.	16c/Jk	.	.	.	.	.	.	.	.	.	.	.	.	.	.	.	.	.	.	.	.	.	.	.	.	.	.	.	.	.
4BB-/	.	.	4cc\	.	4d/	.	4bb-\	.	4BB-/	-la	.	4f\	-la	.	4f\	-la	.	4dd\	-la	.	4BB-/	.	4d/	]	4b-\	.	8r	.	8r	.	8r	.	8r	.
.	.	.	.	.	.	.	.	.	.	.	.	.	.	.	.	.	.	.	.	.	.	.	.	.	.	.	8B-\L	.	(8dd\L	.	(8ff\L	.	8bb-\L	.
4r	.	.	4r	.	4r	.	4r	.	4r	.	.	4r	.	.	4r	.	.	4r	.	.	4r	.	4r	.	4r	.	8c\	.	8cc\	.	8ee-\)	.	8ccc\	.
.	.	.	.	.	.	.	.	.	.	.	.	.	.	.	.	.	.	.	.	.	.	.	.	.	.	.	8d\J	.	8b-\J)	.	8dd\J	.	8ddd\J	.
!	!	!	!	!	!	!	!LO:LB:g=original	!	!LO:LB:g=original	!	!	!LO:LB:g=original	!	!	!	!	!	!LO:LB:g=original	!	!	!	!	!	!	!	!	!	!	!	!	!	!	!	!
=32	=32	=32	=32||:	=32	=32	=32	=32	=32	=32	=32	=32	=32	=32	=32	=32	=32	=32	=32	=32	=32	=32	=32	=32	=32	=32	=32	=32	=32	=32	=32	=32	=32	=32	=32
!	!	!LO:DY:b:t=fo	!	!LO:DY:b:t=fo	!	!	!	!LO:DY:b:t=ffo	!	!	!	!	!	!	!	!	!	!	!	!	!	!	!	!	!	!	!	!	!	!	!	!	!	!
8.BB-/L	-7_ 5_	f	8.b-\L	f	8B-/L 8a	.	(16b-\LL	ff	4B-\	De-	.	4f\	De-	.	4a-X\	De-	.	4dd\	De-	.	2.r	.	2.r	.	2.r	.	4B-\	.	4dd\	.	4ff\	ff	4bb-\	.
.	.	.	.	.	.	.	16dd\	.	.	.	.	.	.	.	.	.	.	.	.	.	.	.	.	.	.	.	.	.	.	.	.	.	.	.
.	.	.	.	.	8B-/ 8a	.	16ff\	.	.	.	.	.	.	.	.	.	.	.	.	.	.	.	.	.	.	.	.	.	.	.	.	.	.	.
16C/Jk	.	.	16cc\Jk	.	.	.	16bb-\JJ)	.	.	.	.	.	.	.	.	.	.	.	.	.	.	.	.	.	.	.	.	.	.	.	.	.	.	.
!	!	!	!	!	!	!	!	!	!	!	!	!	!	!	!	!	!	!	!	!	!	!	!	!	!	!	!	!	!	!LO:DY:b:t=fo	!	!	!	!
8.D\L	.	.	8.dd\L	.	8B-/ 8a	.	(16b-\LL	.	8B-\	-u(m)	.	8f\	-u(m)	.	8a-\	-um	.	8dd\	-um	.	.	.	.	.	.	.	8B-\L	.	8dd\L	f	8ff\L	.	8bb-\L	.
.	.	.	.	.	.	.	16dd\	.	.	.	.	.	.	.	.	.	.	.	.	.	.	.	.	.	.	.	.	.	.	.	.	.	.	.
.	.	.	.	.	8B-/J 8a	.	16ff\	.	8A-X\	de	.	8f\	de	.	8a-\	de	.	8dd\	de	.	.	.	.	.	.	.	8A-X\	.	8dd\	.	8ff\	.	8bb-\	.
16BB-\Jk	.	.	16cc\Jk	.	.	.	16bb-\JJ)	.	.	.	.	.	.	.	.	.	.	.	.	.	.	.	.	.	.	.	.	.	.	.	.	.	.	.
8.E-\L	3	.	8.e-\L	.	8B-/L 8g	.	16b-\LL	.	8G\	de-	.	8g\	de-	.	8g\	de-	.	8ee-\	de-	.	.	.	.	.	.	.	8G\	.	8ee-\	.	8gg\	.	8eee-\	.
.	.	.	.	.	.	.	16ee-\	.	.	.	.	.	.	.	.	.	.	.	.	.	.	.	.	.	.	.	.	.	.	.	.	.	.	.
!	!	!	!	!	!	!	!	!	!	!	!	!LO:TX:t=P:problem=wykreślony, błędnie wpisany takt	!	!	!	!	!	!	!	!	!	!	!	!	!	!	!	!	!	!	!	!	!	!
.	.	.	.	.	8B-/J 8g	.	16gg\	.	8E-\	-o	.	8g\	-o	.	8g\	-o	.	8ee-\	-o	.	.	.	.	.	.	.	8F\J	.	8ee-\J	.	8gg\J	.	8eee-\J	.
16G\Jk	.	.	16g\Jk	.	.	.	16bb-\JJ	.	.	.	.	.	.	.	.	.	.	.	.	.	.	.	.	.	.	.	.	.	.	.	.	.	.	.
!	!	!	!	!	!	!	!	!	!	!	!	!	!	!	!	!	!	!	!	!	!	!	!	!	!	!	!	!	!	!	!	!	!LO:LB:g=original	!
=33	=33	=33	=33:||	=33	=33	=33	=33	=33	=33	=33	=33	=33	=33	=33	=33	=33	=33	=33	=33	=33	=33	=33	=33	=33	=33	=33	=33	=33	=33	=33	=33	=33	=33	=33
!	!	!	!	!	!	!	!	!	!	!	!	!	!	!	!	!	!	!	!	!	!LO:TX:a:t=8	!	!LO:TX:a:t=8	!	!LO:TX:a:t=8	!	!	!	!	!	!	!	!	!
8.BB-/L	-7_ 5_	.	8.b-\Lyy	.	8B-/L 8a	.	16b-\LL	.	4D\	lu-	.	4f\	lu-	.	4a\	lu-	.	4dd\	lu-	.	2.r	.	2.r	.	2.r	.	8.D\L	.	4dd\	.	4ff\	.	4ddd\	.
.	.	.	.	.	.	.	16dd\	.	.	.	.	.	.	.	.	.	.	.	.	.	.	.	.	.	.	.	.	.	.	.	.	.	.	.
.	.	.	.	.	8B-/ 8a	.	16ff\	.	.	.	.	.	.	.	.	.	.	.	.	.	.	.	.	.	.	.	.	.	.	.	.	.	.	.
16C/Jk	.	.	16cc\Jkyy	.	.	.	16bb-\JJ	.	.	.	.	.	.	.	.	.	.	.	.	.	.	.	.	.	.	.	16F\Jk	.	.	.	.	.	.	.
8.D\L	.	.	8.dd\Lyy	.	8B-/ 8a	.	16b-\LL	.	8D\	-men	.	8f\	-men	.	8a\	-men	.	8dd\	-men	.	.	.	.	.	.	.	(8B-\L	.	8dd\L	.	8ff\L	.	8bb-\L	.
.	.	.	.	.	.	.	16dd\	.	.	.	.	.	.	.	.	.	.	.	.	.	.	.	.	.	.	.	.	.	.	.	.	.	.	.
.	.	.	.	.	8B-/J 8a	.	16ff\	.	8D\	de	.	8f\	de	.	8a\	de	.	8dd\	de	.	.	.	.	.	.	.	8A-X\	.	8dd\	.	8ff\	.	8ddd\	.
16BB-\K	.	.	16cc\Jkyy	.	.	.	16bb-\JJ	.	.	.	.	.	.	.	.	.	.	.	.	.	.	.	.	.	.	.	.	.	.	.	.	.	.	.
8.E-\	3	.	8.e-\Lyy	.	8B-/L 8g	.	16b-\LL	.	8E-\	lu-	.	8e-\	lu-	.	8g\	lu-	.	8ee-\	lu-	.	.	.	.	.	.	.	8G\	.	8ee-\	.	8gg\	.	8eee-\	.
.	.	.	.	.	.	.	16ee-\	.	.	.	.	.	.	.	.	.	.	.	.	.	.	.	.	.	.	.	.	.	.	.	.	.	.	.
.	.	.	.	.	8B-/J 8g	.	16gg\	.	16G\	-mi-	.	16e-\	-mi-	.	16g\	-mi-	.	16ee-\	-mi-	.	.	.	.	.	.	.	8E-\J)	.	8ee-\J	.	8gg\J	.	8eee-\J	.
16G\Jk	.	.	16g\Jkyy	.	.	.	16bb-\JJ	.	16G\	-ne	.	16e-\	-ne	.	16g\	-ne	.	16ee-\	-ne	.	.	.	.	.	.	.	.	.	.	.	.	.	.	.
!	!	!	!	!	!	!	!	!	!	!	!	!LO:LB:g=original	!	!	!	!	!	!	!	!	!	!	!	!	!	!LO:LB:g=original	!	!	!	!	!	!	!	!
=34	=34	=34	=34	=34	=34	=34	=34	=34	=34	=34	=34	=34	=34	=34	=34	=34	=34	=34	=34	=34	=34	=34	=34	=34	=34	=34	=34	=34	=34	=34	=34	=34	=34	=34
!	!	!	!	!	!	!	!	!	!	!	!	!	!	!	!	!	!	!	!	!	!	!	!	!	!	!	!LO:TX:t=P:problem=mixed beam	!	!	!	!	!	!	!
8A-X\L	3	.	8a-X\L	.	8A-X/L 8f	.	(16ff\LL	.	8A-X\	De-	.	8f\	De-	.	8b-\	De-	.	8ff\	De-	.	2.r	.	2.r	.	2.r	.	8A-X\L	.	4ff\	.	4aa-X\	.	4fff\	.
.	.	.	.	.	.	.	16ccc\)	.	.	.	.	.	.	.	.	.	.	.	.	.	.	.	.	.	.	.	.	.	.	.	.	.	.	.
8F\J	.	.	8f\J	.	8A-/ 8f	.	16aa-X'\	.	8An\	-um	.	8f\	-um	.	8b-\	-um	.	8ff\	-um	.	.	.	.	.	.	.	8A-\	.	.	.	.	.	.	.
.	.	.	.	.	.	.	16ff'\JJ	.	.	.	.	.	.	.	.	.	.	.	.	.	.	.	.	.	.	.	.	.	.	.	.	.	.	.
4B-\	6 4	.	4b-\	.	8G/ 8e-	.	(16ee-\LL	.	8B-\	ve-	.	8g\	ve-	.	8a\	ve-	.	8ee-\	ve-	.	.	.	.	.	.	.	8B-\	.	4ee-\	.	4gg\	.	4eee-\	.
.	.	.	.	.	.	.	16bb-\)	.	.	.	.	.	.	.	.	.	.	.	.	.	.	.	.	.	.	.	.	.	.	.	.	.	.	.
.	.	.	.	.	8G/ 8e-	.	16gg'\	.	16B-\	-rum	.	16g\	-ru(m)	.	16a\	-ru(m)	.	16ee-\	-ru(m)	.	.	.	.	.	.	.	8B-\	.	.	.	.	.	.	.
.	.	.	.	.	.	.	16ee-'\JJ	.	16B-\	de	.	16g\	de	.	16b-\	de	.	16ee-\	de	.	.	.	.	.	.	.	.	.	.	.	.	.	.	.
8BB-/L	5 3	<	8B-/L	.	8A-/ 8d	.	(16dd\LL	.	8BB-/	de-	.	8f\	De-	.	8g\	de-	.	8dd\	de-	.	.	.	.	.	.	.	8BB-\	.	4dd\	.	4ff\	.	4ddd\	.
.	.	.	.	.	.	.	16aa-\)	.	.	.	.	.	.	.	.	.	.	.	.	.	.	.	.	.	.	.	.	.	.	.	.	.	.	.
16C/L	.	.	16c/L	.	8A-/J 8d	.	16ff'\	.	8BB-/	-o	.	8f\	-o	.	8g\	-o	.	8dd\	-o	.	.	.	.	.	.	.	8BB-\J	.	.	.	.	.	.	.
16D/JJ	.	[	16d/JJ	.	.	.	16dd'\JJ	.	.	.	.	.	.	.	.	.	.	.	.	.	.	.	.	.	.	.	.	.	.	.	.	.	.	.
!	!	!	!	!	!LO:LB:g=original	!	!LO:LB:g=original	!	!LO:LB:g=original	!	!	!	!	!	!LO:LB:g=original	!	!	!	!	!	!	!	!	!	!	!	!	!	!	!	!	!	!	!
!	!	!	!	!	!	!	!	!	!	!	!	!	!	!	!	!	!	!	!	!	!	!	!	!	!	!	!	!	!	!	!LO:LB:g=original	!	!	!
!	!	!	!	!	!	!	!	!	!	!	!	!	!	!	!	!	!	!	!	!	!	!	!	!	!	!	!	!	!	!	!	!	!	!
=35	=35	=35	=35	=35	=35	=35	=35	=35	=35	=35	=35	=35	=35	=35	=35	=35	=35	=35	=35	=35	=35	=35	=35	=35	=35	=35	=35	=35	=35	=35	=35	=35	=35	=35
!	!	!LO:DY:b:t=fo	!	!	!	!	!	!	!	!	!	!	!	!	!	!	!	!	!	!	!	!	!	!	!	!	!	!	!	!	!	!	!	!
4E-\	.	f	4e-\	.	4G/ 4e-	.	4ee-\	.	4E-\	ve-	.	4e-\	ve-	.	4g\	ve-	.	4ee-\	ve-	.	2.r	.	2.r	.	2.r	.	4E-\	.	4b-\	.	4gg\	.	4eee-\	.
4EE-/	.	.	4E-/	.	4G/ 4e-	.	4G/ 4e-	.	4e-\	-ro	.	4B-\	-ro	.	4g\	-ro	.	4ee-\	-ro	.	.	.	.	.	.	.	4E-\	.	4g\	.	4ee-\	.	4eee-^\	.
4r	.	.	4r	.	4r	.	4r	.	4r	.	.	4r	.	.	4r	.	.	4r	.	.	.	.	.	.	.	.	4r	.	4r	.	4r	.	4r	.
!	!	!	!	!	!	!	!	!	!	!	!	!	!	!	!	!	!	!LO:LB:g=original	!	!	!	!	!	!	!	!	!	!	!	!	!	!	!	!
=36	=36	=36	=36	=36	=36	=36	=36	=36	=36	=36	=36	=36	=36	=36	=36	=36	=36	=36	=36	=36	=36	=36	=36	=36	=36	=36	=36	=36	=36	=36	=36	=36	=36	=36
!	!	!	!	!	!	!	!	!	!	!	!	!	!	!	!	!	!	!	!	!	!	!	!	!	!	!	!	!	!LO:DY:b:t=fo	!	!	!	!	!
!	!	!	!	!	!	!LO:DY:b:t=fo	!	!	!	!	!LO:DY:b:t=for	!	!	!	!	!	!LO:DY:b:t=fo	!	!	!LO:DY:b:t=fo	!	!	!	!	!	!	!	!	!	!	!	!	!	!
!	!	!	!	!	!	!	!	!	!	!	!	!	!	!	!	!	!	!	!	!	!	!	!	!	!	!	!	!	!	!	!	!LO:DY:b:t=fo	!	!
4G\	.	.	4g\	.	8.g/L	f	8.g'/L	.	8.G\	Ge-	f	8.G/	Ge-	.	8.g\	Ge-	f	8.g\	ge-	f	2.r	.	2.r	.	2.r	.	4G\	f	4g^/	.	4g^\	f	4gg\	ff
.	.	.	.	.	16g/Jk	.	16g'/Jk	.	16G\	-ni-	.	16G/	-ni-	.	16g\	-ni-	.	16g\	-ni-	.	.	.	.	.	.	.	.	.	.	.	.	.	.	.
8r	.	.	8r	.	8g/L	.	8g/L	.	8G\	-tum	.	8G/	-tu(m)	.	8g\	-tu(m)	.	8g\	-tum	.	.	.	.	.	.	.	8r	.	8r	.	8r	.	8r	.
!	!	!	!	!	!	!	!	!	!	!	!	!	!	!	!	!	!	!	!	!	!	!	!	!	!	!	!	!	!	!LO:DY:b:t=for	!	!	!	!
8G'\L	.	.	8d\L	.	8g/	.	8g/J	.	8G\L	no(n)	.	8G/L	non	.	(8g\L	non	.	(8g\L	non	.	.	.	.	.	.	.	8G\L	.	8g/L	f	8g\L	.	(8gg\L	.
8F'\	.	.	8f\	.	8f/	.	8a/L	.	8A\J	.	.	8A/J	.	.	8f\J)	.	.	8a\J)	.	.	.	.	.	.	.	.	8A\	.	8f/	.	8a\	.	8aa\	.
8D'\J	.	.	8g\J	.	8d/J	.	8bn/J	.	8Bn\	non	.	8Bn\	non	.	8d\	non	.	8bn\	non	.	.	.	.	.	.	.	8Bn\J	.	8d/J	.	8bX\J	.	8bbn\J)	.
!	!	!	!	!	!	!	!	!	!	!	!	!	!	!	!	!	!	!	!	!	!	!	!	!	!	!	!	!	!LO:LB:g=original	!	!	!	!	!
=37	=37	=37	=37	=37	=37	=37	=37	=37	=37	=37	=37	=37	=37	=37	=37	=37	=37	=37	=37	=37	=37	=37	=37	=37	=37	=37	=37	=37	=37	=37	=37	=37	=37	=37
!	!	!	!	!	!	!	!	!	!	!	!	!	!	!	!	!	!	!	!	!	!	!	!	!	!	!	!	!	!	!	!	!LO:DY:a	!	!
8.E-\L	6_ 3_	.	8.c\L	.	8.e-/L	.	8.cc\L	.	(8.c\L	fa-	.	(8.c\L	fa-	.	(8.e-\L	fa-	.	8.cc\L	fa-	.	2.r	.	2.r	.	2.r	.	8.B-\L	.	4e-/	.	8.cc\L	>	8.ccc\L	.
16D\Jk	.	.	16d\Jk	.	16d/Jk	.	16dd\Jk	.	16d\Jk	.	.	16d\Jk	.	.	16d\Jk	.	.	16dd\Jk	.	.	.	.	.	.	.	.	16d\Jk	.	.	.	16dd\Jk	.	16ddd\K	.
4C\	.	.	4e-\	.	4e-/	.	4ee-\	.	4e-\)	-ctu(m)	.	4e-\)	-ctu(m)	.	4c\)	-ctum	.	4ee-\	-ctum	.	.	.	.	.	.	.	4e-\	.	8.cc\L	.	8.ee-\L	.	8.eee-\	.
.	.	.	.	.	.	.	.	.	.	.	.	.	.	.	.	.	.	.	.	.	.	.	.	.	.	.	.	.	16dd\Jk	.	16ff\Jk	]	16fff\Jk	.
4r	.	.	4r	.	4r	.	4r	.	4r	.	.	4r	.	.	4r	.	.	4r	.	.	.	.	.	.	.	.	4r	.	4ee-\	.	4gg\	.	4ggg\	.
!LO:LB:g=original	!	!	!	!	!	!	!	!	!	!	!	!LO:LB:g=original	!	!	!	!	!	!	!	!	!	!	!	!	!	!	!	!	!	!	!	!	!	!
=38	=38	=38	=38	=38	=38	=38	=38	=38	=38	=38	=38	=38	=38	=38	=38	=38	=38	=38	=38	=38	=38	=38	=38	=38	=38	=38	=38	=38	=38	=38	=38	=38	=38	=38
4F\	.	.	4f\	.	8f/L	.	8.f/L	.	8.F\	Con-	.	8.F/	Con-	.	8.d\	Con-	.	8.f/	Con-	.	2.r	.	2.r	.	2.r	.	4F\	.	4d/	.	4f/	.	4ff\	.
.	.	.	.	.	16g/L	.	.	.	.	.	.	.	.	.	.	.	.	.	.	.	.	.	.	.	.	.	.	.	.	.	.	.	.	.
.	.	.	.	.	16f/JJ	.	16f/Jk	.	16F\	-sub-	.	16F/	-sub-	.	16d\	-sub-	.	16f/	-sub-	.	.	.	.	.	.	.	.	.	.	.	.	.	.	.
8r	.	.	8r	.	8g/L	.	8f/L	.	8F\	-sta(n)-	.	8F/	-sta(n)-	.	8d\	-stan-	.	8f/	-stan-	.	.	.	.	.	.	.	8r	.	8r	.	8r	.	8r	.
8F\L	.	.	8c\L	.	8g/	.	8f/	.	8F\	-ti-	.	8F/	-ti-	.	8d\	-ti-	.	8f/	-ti-	.	.	.	.	.	.	.	8F\L	.	8d/L	.	8f/L	.	8ff\L	.
8E-\	3	.	8e-\	.	8e-/	.	8g/	.	8G\	-a-	.	8G/	-a-	.	8e-\	-a-	.	8g/	-a-	.	.	.	.	.	.	.	8G\	.	8e-/	.	8g/	.	8gg\	.
8C\J	6 3	.	8f\J	.	8c/J	.	8a/J	.	8A\	-lem	.	8A/	-lem	.	8c\	-lem	.	8a/	-lem	.	.	.	.	.	.	.	8A\J	.	8c/J	.	8a/J	.	8aa\J	.
!	!	!	!	!	!	!	!	!	!	!	!	!	!	!	!LO:LB:g=original	!	!	!	!	!	!	!	!	!	!	!	!	!	!	!	!	!	!	!
=39	=39	=39	=39	=39	=39	=39	=39	=39	=39	=39	=39	=39	=39	=39	=39	=39	=39	=39	=39	=39	=39	=39	=39	=39	=39	=39	=39	=39	=39	=39	=39	=39	=39	=39
!	!	!	!	!	!	!	!	!	!	!	!	!	!	!	!	!	!	!	!	!	!	!	!	!	!	!	!	!	!	!	!	!LO:DY:a	!	!
8.D/L	6	.	8.B-\L	.	8d/L	.	8.b-X\L	.	4B-\	pa-	.	4B-\	pa-	.	4d\	pa-	.	4b-\	pa-	.	2.r	.	2.r	.	2.r	.	8.B-\L	.	4d/	.	8.b-\L	>	8.bb-\L	.
.	.	.	.	.	8c/J	.	.	.	.	.	.	.	.	.	.	.	.	.	.	.	.	.	.	.	.	.	.	.	.	.	.	.	.	.
16C/Jk	.	.	16c\Jk	.	.	.	16cc\Jk	.	.	.	.	.	.	.	.	.	.	.	.	.	.	.	.	.	.	.	16c\Jk	.	.	.	16cc\K	.	16ccc\K	.
4BB-/	.	.	4d\	.	4B-/	.	4dd\	.	4d\	-tri	.	4d\	-tri	.	4f\	-tri	.	4dd\	-tri	.	.	.	.	.	.	.	4d\	.	8.b-\L	.	8.dd\	.	8.ddd\	.
.	.	.	.	.	.	.	.	.	.	.	.	.	.	.	.	.	.	.	.	.	.	.	.	.	.	.	.	.	16cc\Jk	.	16ee-\Jk	]	16eee-\Jk	.
4r	.	.	4r	.	4r	.	4r	.	4r	.	.	4r	.	.	4r	.	.	4r	.	.	.	.	.	.	.	.	4r	.	4dd\	.	4ff\	.	4fff\	.
!	!	!	!	!	!	!	!	!	!LO:LB:g=original	!	!	!	!	!	!	!	!	!	!	!	!	!	!	!	!	!	!	!	!	!	!	!	!	!
!	!	!	!LO:LB:g=original	!	!	!	!	!	!LO:TX:t=Vi	!	!	!	!	!	!	!	!	!	!	!	!	!	!	!	!	!	!	!	!	!	!	!	!	!
!	!	!	!	!	!	!	!	!	!	!	!	!	!	!	!	!	!	!	!	!	!	!	!	!	!	!	!LO:LB:g=original	!	!	!	!	!	!	!
=40	=40	=40	=40	=40	=40	=40	=40	=40	=40	=40	=40	=40	=40	=40	=40	=40	=40	=40	=40	=40	=40	=40	=40	=40	=40	=40	=40	=40	=40	=40	=40	=40	=40	=40
!	!	!	!	!	!	!	!	!	!LO:TX:t=P:problem=takty 39-50 zapisane u dołu strony, z odsyłaczami ViDe ReTro	!	!	!	!	!	!	!	!	!	!	!	!	!	!	!	!	!	!	!	!	!	!	!	!	!
!	!	!	!	!	!	!	!	!	!LO:TX:t=De	!	!	!	!	!	!	!	!	!	!	!	!	!	!	!	!	!	!	!	!	!	!	!	!	!
!	!	!	!	!	!	!	!LO:TX:t=P:problem=problem klamry łukowej	!	!	!	!	!	!	!	!	!	!	!	!	!	!	!	!	!	!	!	!	!	!	!	!	!	!	!
4r	.	.	4r	.	8c/L 8e-	.	12f/L	.	4r	.	.	4r	.	.	4r	.	.	4r	.	.	4r	.	4r	.	4r	.	4r	.	4r	.	4r	.	4r	.
.	.	.	.	.	.	.	12a/	.	.	.	.	.	.	.	.	.	.	.	.	.	.	.	.	.	.	.	.	.	.	.	.	.	.	.
.	.	.	.	.	8c/ 8e-	.	.	.	.	.	.	.	.	.	.	.	.	.	.	.	.	.	.	.	.	.	.	.	.	.	.	.	.	.
.	.	.	.	.	.	.	12cc/J	.	.	.	.	.	.	.	.	.	.	.	.	.	.	.	.	.	.	.	.	.	.	.	.	.	.	.
!	!	!	!	!	!	!	!	!	!	!	!LO:DY:a	!	!	!	!	!	!	!	!	!	!	!	!	!	!	!LO:DY:b:t=fo	!	!	!	!LO:DY:a	!	!	!	!
!	!	!	!	!	!	!	!	!	!	!	!	!	!	!	!	!	!	!	!	!	!	!LO:DY:b:t=fo	!	!LO:DY:b:t=fo	!	!	!	!	!	!	!	!	!	!
4F^\	7_	.	4f\	.	8c/ 8e-	.	(16ee-\LL	.	4F\	per	[ >	4f\	per	.	4f\	per	.	4ee-\	per	.	4FF/	f	4f/	f <	4cc\	f	4F\	.	4cc\	>	4ee-^\	.	4ccc^\	.
.	.	.	.	.	.	.	16cc\	.	.	.	.	.	.	.	.	.	.	.	.	.	.	.	.	.	.	.	.	.	.	.	.	.	.	.
.	.	.	.	.	8c/ 8e-	.	16a\	.	.	.	.	.	.	.	.	.	.	.	.	.	.	.	.	.	.	.	.	.	.	.	.	.	.	.
.	.	.	.	.	.	.	16f\JJ)	.	.	.	.	.	.	.	.	.	.	.	.	.	.	.	.	.	.	.	.	.	.	.	.	.	.	.
4B-\	3	.	4b-\	.	8B-/ 8d	.	(16d/LL	.	4B-\	qu(em)	.	4f\	que(m)	.	4b-\	qu(m)	.	4dd\	que(m)	.	4BB-/	.	4b-/	[	4dd\	.	4BB-/	.	4b-\	]	4dd\	.	4ddd\	.
.	.	.	.	.	.	.	16f/	.	.	.	.	.	.	.	.	.	.	.	.	.	.	.	.	.	.	.	.	.	.	.	.	.	.	.
.	.	.	.	.	8B-/J 8d	.	16b-/	.	.	.	.	.	.	.	.	.	.	.	.	.	.	.	.	.	.	.	.	.	.	.	.	.	.	.
.	.	.	.	.	.	.	16dd/JJ)	.	.	.	.	.	.	.	.	.	.	.	.	.	.	.	.	.	.	.	.	.	.	.	.	.	.	.
!	!	!	!	!	!LO:LB:g=original	!	!LO:LB:g=original	!	!	!	!	!	!	!	!	!	!	!	!	!	!	!	!	!	!	!	!	!	!	!	!	!	!	!
=41	=41	=41	=41	=41	=41	=41	=41	=41	=41	=41	=41	=41	=41	=41	=41	=41	=41	=41	=41	=41	=41	=41	=41	=41	=41	=41	=41	=41	=41	=41	=41	=41	=41	=41
!	!	!	!	!	!	!	!LO:TX:t=P:problem=problem klamry łukowej	!	!	!	!	!	!	!	!	!	!	!	!	!	!	!	!	!	!	!	!	!	!	!	!	!	!	!
4r	.	.	4r	.	8G/L 8e-	.	12e-/L	.	4E-\	om-	.	4e-\	om-	.	4b-\	Om-	.	4gg\	om-	.	4r	.	4r	.	4r	.	4E-\	.	4r	.	4r	.	4r	.
.	.	.	.	.	.	.	12g/	.	.	.	.	.	.	.	.	.	.	.	.	.	.	.	.	.	.	.	.	.	.	.	.	.	.	.
.	.	.	.	.	8G/ 8e-	.	.	.	.	.	.	.	.	.	.	.	.	.	.	.	.	.	.	.	.	.	.	.	.	.	.	.	.	.
.	.	.	.	.	.	.	12b-/J	.	.	.	.	.	.	.	.	.	.	.	.	.	.	.	.	.	.	.	.	.	.	.	.	.	.	.
!	!	!	!	!	!	!	!	!	!	!	!	!	!	!	!	!	!	!	!	!	!	!	!	!LO:DY:a	!	!	!	!	!	!LO:DY:a	!	!	!	!
4E-\	3	.	4e-\	.	8G/ 8e-	.	16ee-\LL	.	4C\	-ni-	.	4e-\	-ni-	.	4b-\	-ni-	.	4gg\	-ni-	.	4BB-/	.	4B-/	<	4b-\	.	4E-\	.	4ee-\	>	4gg^\	.	4eee-^\	.
.	.	.	.	.	.	.	16gg\	.	.	.	.	.	.	.	.	.	.	.	.	.	.	.	.	.	.	.	.	.	.	.	.	.	.	.
.	.	.	.	.	8G/ 8e-	.	16bb-\	.	.	.	.	.	.	.	.	.	.	.	.	.	.	.	.	.	.	.	.	.	.	.	.	.	.	.
.	.	.	.	.	.	.	16gg\JJ	.	.	.	.	.	.	.	.	.	.	.	.	.	.	.	.	.	.	.	.	.	.	.	.	.	.	.
4BB-\	5 3	.	4B-\	.	8B-/ 8d	.	16ff\LL	.	4E-\	-a	.	4d\	-a	.	4b-\	-a	.	4ff\	-a	.	4BB-/	.	4B-/	[	4b-\	.	4D\	.	4dd\	]	4ff\	.	4ddd\	.
.	.	.	.	.	.	.	16ddd\	.	.	.	.	.	.	.	.	.	.	.	.	.	.	.	.	.	.	.	.	.	.	.	.	.	.	.
.	.	.	.	.	8B-/J 8d	.	16bb-\	.	.	.	.	.	.	.	.	.	.	.	.	.	.	.	.	.	.	.	.	.	.	.	.	.	.	.
.	.	.	.	.	.	.	16ff\JJ	.	.	.	.	.	.	.	.	.	.	.	.	.	.	.	.	.	.	.	.	.	.	.	.	.	.	.
!	!	!	!	!	!	!	!	!	!	!	!	!	!	!	!	!	!	!LO:LB:g=original	!	!	!	!	!	!	!	!	!	!	!	!	!LO:LB:g=original	!	!LO:LB:g=original	!
=42	=42	=42	=42	=42	=42	=42	=42	=42	=42	=42	=42	=42	=42	=42	=42	=42	=42	=42	=42	=42	=42	=42	=42	=42	=42	=42	=42	=42	=42	=42	=42	=42	=42	=42
!	!	!	!	!	!	!	!	!	!	!	!	!	!	!	!	!	!LO:DY:a	!	!	!LO:DY:a	!	!	!	!LO:DY:a	!	!	!	!	!	!	!	!	!	!
*	*	*	*	*	*	*	*	*	*	*ij	*	*	*ij	*	*	*ij	*	*	*	*	*	*	*	*	*	*	*	*	*	*	*	*	*	*
8GG/L	6_ #4_	.	8G/L	.	8g/L 8b-	>	16een\LL	.	4.D-X\	om-	.	4.g\	om-	rfz	4.b-\	om-	rfz >	4.ee-\	om-	f >	4BB-/	.	2B-/	>	2b-\	.	8G\	.	8cc#X\	.	8eeX\	.	8eeen\	.
.	.	.	.	.	.	.	16ddd-X\	.	.	.	.	.	.	.	.	.	.	.	.	.	.	.	.	.	.	.	.	.	.	.	.	.	.	.
!	!	!	!	!	!	!	!	!	!	!	!	!	!	!	!	!	!	!	!	!	!	!	!	!	!	!	!	!	!	!LO:DY:a	!	!	!	!
8BB-/	.	.	8B-/	.	8g/J 8b-	.	16bb-\	.	.	.	.	.	.	.	.	.	.	.	.	.	.	.	.	.	.	.	4g\	>	4cc#\	>	4ee\	.	4eee\	.
.	.	.	.	.	.	.	16gg\JJ	.	.	.	.	.	.	.	.	.	.	.	.	.	.	.	.	.	.	.	.	.	.	.	.	.	.	.
8D-X/	.	.	8d-X/	.	4g/ 4b-	.	16ee\LL	.	.	.	.	.	.	.	.	.	.	.	.	.	4r	.	.	.	.	.	.	.	.	.	.	.	.	.
.	.	.	.	.	.	.	16dd-X\	.	.	.	.	.	.	.	.	.	.	.	.	.	.	.	.	.	.	.	.	.	.	.	.	.	.	.
8En/	.	.	8en/	.	.	.	16b-\	.	8D-\	-ni-	.	8g\	-ni-	.	8b-\	-ni-	]	8ee-\	-ni-	]	.	.	.	.	.	.	4g\	]	4cc#\	]	4ee\	.	4eee\	.
.	.	.	.	.	.	.	16g\JJ	.	.	.	.	.	.	.	.	.	.	.	.	.	.	.	.	.	.	.	.	.	.	.	.	.	.	.
8G/	.	.	8g/	.	4g/ 4b-	]	16en/LL	.	4D-\	-a	.	4g\	-a	.	4b-\	-a	.	4ee-\	-a	.	4r	.	4r	]	4r	.	.	.	.	.	.	.	.	.
*	*	*	*	*	*	*	*	*	*	*Xij	*	*	*Xij	*	*	*Xij	*	*	*	*	*	*	*	*	*	*	*	*	*	*	*	*	*	*
.	.	.	.	.	.	.	16g/	.	.	.	.	.	.	.	.	.	.	.	.	.	.	.	.	.	.	.	.	.	.	.	.	.	.	.
8E/J	.	.	8e/J	.	.	.	16b-/	.	.	.	.	.	.	.	.	.	.	.	.	.	.	.	.	.	.	.	8g\	.	8cc#\	.	8ee\	.	8eee\	.
.	.	.	.	.	.	.	16e/JJ	.	.	.	.	.	.	.	.	.	.	.	.	.	.	.	.	.	.	.	.	.	.	.	.	.	.	.
=43	=43	=43	=43	=43	=43	=43	=43	=43	=43	=43	=43	=43	=43	=43	=43	=43	=43	=43	=43	=43	=43	=43	=43	=43	=43	=43	=43	=43	=43	=43	=43	=43	=43	=43
4F\	.	.	4f\	.	4B-/ 4d	.	4f/	.	2Dn\	fac-	.	(4f\	fa-	.	2b-^\	fa-	.	2ff^\	fa-	.	2.r	.	2.r	.	2.r	.	(8f\L	.	4dd\	.	4ff\	.	4fff\	.
.	.	.	.	.	.	.	.	.	.	.	.	.	.	.	.	.	.	.	.	.	.	.	.	.	.	.	8f\	.	.	.	.	.	.	.
4r	.	.	4r	.	4r	.	4r	.	.	.	.	4d\)	.	.	.	.	.	.	.	.	.	.	.	.	.	.	8.en\	.	4r	.	4r	.	4r	.
.	.	.	.	.	.	.	.	.	.	.	.	.	.	.	.	.	.	.	.	.	.	.	.	.	.	.	16f\K	.	.	.	.	.	.	.
4FF/	.	.	4F/	.	4c/ 4e-	.	4f/ 4a	.	4E-\	-ta	.	4e-\	-cta	.	4e-\	-cta	.	4a\	-cta	.	.	.	.	.	.	.	8.e-X\	.	4e-/	.	4a\	.	4eee-X\	.
.	.	.	.	.	.	.	.	.	.	.	.	.	.	.	.	.	.	.	.	.	.	.	.	.	.	.	16c\Jk)	.	.	.	.	.	.	.
!	!	!	!	!	!	!	!	!	!	!	!	!LO:LB:g=original	!	!	!	!	!	!	!	!	!	!	!	!	!	!	!	!LO:LB:g=original	!	!	!	!	!	!
=44	=44	=44	=44	=44	=44	=44	=44	=44	=44	=44	=44	=44	=44	=44	=44	=44	=44	=44	=44	=44	=44	=44	=44	=44	=44	=44	=44	=44	=44	=44	=44	=44	=44	=44
!	!	!	!	!	!	!	!LO:TX:a:i:t=Dolce	!	!	!	!	!	!	!	!	!	!	!	!	!	!LO:TX:a:t=15	!	!LO:TX:a:t=15	!	!LO:TX:a:t=15	!	!	!	!	!	!	!	!	!
4BB-/	.	.	(8B-\L	.	4B-/ 4d	.	(8b-\L	.	4D\	sunt	.	4d\	sunt	.	4f\	sunt	.	4b-\	sunt	.	2.r	.	2.r	.	2.r	.	4B-\	p	4d/	.	4b-\	.	4ddd\	.
.	.	.	8b-\	.	.	.	8bb-\	.	.	.	.	.	.	.	.	.	.	.	.	.	.	.	.	.	.	.	.	.	.	.	.	.	.	.
4r	.	.	8f\	.	4r	.	8ff\)	.	4r	.	.	4r	.	.	4r	.	.	4r	.	.	.	.	.	.	.	.	4r	.	4r	.	4r	.	4r	.
.	.	.	8d\J	.	.	.	8dd\J	.	.	.	.	.	.	.	.	.	.	.	.	.	.	.	.	.	.	.	.	.	.	.	.	.	.	.
*clefC4	*	*	*	*	*	*	*	*	*	*	*	*	*	*	*	*	*	*	*	*	*	*	*	*	*	*	*	*	*	*	*	*	*	*
4d\	n6 3	pp	8Bn\L	.	4d/ 4f	p	(8bn\L	.	4r	.	.	4r	.	.	4r	.	.	4r	.	.	.	.	.	.	.	.	4A-X\	.	4r	.	4r	.	4r	.
.	.	.	8d\J)	.	.	.	8dd\J)	.	.	.	.	.	.	.	.	.	.	.	.	.	.	.	.	.	.	.	.	.	.	.	.	.	.	.
!	!	!	!	!	!	!	!	!	!	!	!	!	!	!	!LO:LB:g=original	!	!	!	!	!	!	!	!	!	!	!	!	!	!	!	!	!	!	!
=45	=45	=45	=45	=45	=45	=45	=45	=45	=45	=45	=45	=45	=45	=45	=45	=45	=45	=45	=45	=45	=45	=45	=45	=45	=45	=45	=45	=45	=45	=45	=45	=45	=45	=45
4e-\	6 3	.	(8c\L	.	4c/ 4e-	.	(8cc\L	.	2.r	.	.	2.r	.	.	2.r	.	.	2.r	.	.	2.r	.	2.r	.	2.r	.	4G\	.	2.r	.	2.r	.	2.r	.
.	.	.	8a\	.	.	.	8gg\	.	.	.	.	.	.	.	.	.	.	.	.	.	.	.	.	.	.	.	.	.	.	.	.	.	.	.
4r	.	.	8e-\	.	4r	.	8ee-\)	.	.	.	.	.	.	.	.	.	.	.	.	.	.	.	.	.	.	.	4r	.	.	.	.	.	.	.
.	.	.	8c\J	.	.	.	8cc\J	.	.	.	.	.	.	.	.	.	.	.	.	.	.	.	.	.	.	.	.	.	.	.	.	.	.	.
4c\	6 -3	.	8A\L)	.	4c/ 4e-	.	8a\L	.	.	.	.	.	.	.	.	.	.	.	.	.	.	.	.	.	.	.	4G-X\	.	.	.	.	.	.	.
.	.	.	8c\J	.	.	.	8cc\J	.	.	.	.	.	.	.	.	.	.	.	.	.	.	.	.	.	.	.	.	.	.	.	.	.	.	.
=46	=46	=46	=46	=46	=46	=46	=46	=46	=46	=46	=46	=46	=46	=46	=46	=46	=46	=46	=46	=46	=46	=46	=46	=46	=46	=46	=46	=46	=46	=46	=46	=46	=46	=46
!	!	!	!	!	!	!	!	!	!LO:TX:a:t=3	!	!	!LO:TX:a:t=3	!	!	!LO:TX:a:t=3	!	!	!LO:TX:a:t=3	!	!	!	!	!	!	!	!	!	!	!LO:TX:a:t=3	!	!LO:TX:a:t=3	!	!LO:TX:a:t=3	!
4d\	6 3	.	8B-X\L	.	4B-/ 4d	.	(8b-X\L	.	2.r	.	.	2.r	.	.	2.r	.	.	2.r	.	.	2.r	.	2.r	.	2.r	.	4G\	.	2.r	.	2.r	.	2.r	.
.	.	.	(8f\	.	.	.	8ff\	.	.	.	.	.	.	.	.	.	.	.	.	.	.	.	.	.	.	.	.	.	.	.	.	.	.	.
4r	.	.	8d\	.	4d/ 4f	.	8dd\	.	.	.	.	.	.	.	.	.	.	.	.	.	.	.	.	.	.	.	4A-X\	.	.	.	.	.	.	.
.	.	.	8Bn\J	.	.	.	8bn\J)	.	.	.	.	.	.	.	.	.	.	.	.	.	.	.	.	.	.	.	.	.	.	.	.	.	.	.
4e-\	6 3	.	8.c\L	.	4c/ 4e-	.	8.cc\L	.	.	.	.	.	.	.	.	.	.	.	.	.	.	.	.	.	.	.	4G\	.	.	.	.	.	.	.
.	.	.	16g\Jk)	.	.	.	16gg\Jk	.	.	.	.	.	.	.	.	.	.	.	.	.	.	.	.	.	.	.	.	.	.	.	.	.	.	.
!LO:LB:g=original	!	!	!LO:LB:g=original	!	!	!	!LO:LB:g=original	!	!	!	!	!	!	!	!	!	!	!	!	!	!	!	!	!	!	!	!	!	!	!	!	!	!	!
=47	=47	=47	=47	=47	=47	=47	=47	=47	=47	=47	=47	=47	=47	=47	=47	=47	=47	=47	=47	=47	=47	=47	=47	=47	=47	=47	=47	=47	=47	=47	=47	=47	=47	=47
4e-\	4 2	.	8r	.	4c/ 4e-	.	8r	.	2.r	.	.	2.r	.	.	2.r	.	.	2.r	.	.	2.r	.	2.r	.	2.r	.	4G-X\	.	2.r	.	2.r	.	2.r	.
.	.	.	8e-\L	.	.	.	(8ee-\L	.	.	.	.	.	.	.	.	.	.	.	.	.	.	.	.	.	.	.	.	.	.	.	.	.	.	.
*clefF4	*	*	*	*	*	*	*	*	*	*	*	*	*	*	*	*	*	*	*	*	*	*	*	*	*	*	*	*	*	*	*	*	*	*
4r	.	.	8c\	.	4r	.	8cc\	.	.	.	.	.	.	.	.	.	.	.	.	.	.	.	.	.	.	.	4r	.	.	.	.	.	.	.
.	.	.	8A\J	.	.	.	8a\J)	.	.	.	.	.	.	.	.	.	.	.	.	.	.	.	.	.	.	.	.	.	.	.	.	.	.	.
4FF/	.	.	8F/L	.	4c/ 4e-	.	(8f/L	.	.	.	.	.	.	.	.	.	.	.	.	.	.	.	.	.	.	.	4F\	.	.	.	.	.	.	.
.	.	.	8A/J	.	.	.	8a/J)	.	.	.	.	.	.	.	.	.	.	.	.	.	.	.	.	.	.	.	.	.	.	.	.	.	.	.
!	!	!	!	!	!LO:LB:g=original	!	!	!	!	!	!	!	!	!	!	!	!	!	!	!	!	!	!	!	!	!	!	!	!	!	!	!	!	!
!	!	!	!	!	!	!	!	!	!	!	!	!	!	!	!	!	!	!	!	!	!	!	!	!	!	!	!LO:LB:g=original	!	!	!	!	!	!	!
=48	=48	=48	=48	=48	=48	=48	=48	=48	=48	=48	=48	=48	=48	=48	=48	=48	=48	=48	=48	=48	=48	=48	=48	=48	=48	=48	=48	=48	=48	=48	=48	=48	=48	=48
!	!	!	!	!	!	!	!	!	!	!	!	!	!	!	!	!	!	!	!	!	!	!	!	!	!	!	!	!LO:DY:b:t=for	!	!	!	!	!	!
!	!	!LO:DY:b:t=p.	!	!	!	!	!	!	!	!	!	!	!	!	!	!LO:DY:b:t=fo	!	!	!	!	!	!	!	!	!	!	!	!	!	!	!	!	!	!
!	!	!	!	!	!	!	!	!	!	!	!	!	!	!	!	!	!	!	!	!	!	!	!	!	!	!	!	!	!	!	!	!LO:DY:b:t=p.	!	!
8.BB-'/L	.	p	8.B-/L	.	4d/	.	4b-X\	.	4BB-/	Qui	.	4f\	Qui	.	4d\	Qui	f	4b-\	Qui	.	2.r	.	2.r	.	2.r	.	8.BB-/L	f	4d/	.	4b-\	p	4bb-\	.
16AA'/K	.	.	16A/K	.	.	.	.	.	.	.	.	.	.	.	.	.	.	.	.	.	.	.	.	.	.	.	16AA/K	.	.	.	.	.	.	.
8.BB-'/	.	.	8.B-/	.	4d/	.	4b-\	.	4D/	prop-	.	4f\	prop-	.	4d\	pro-	.	4b-\	prop-	.	.	.	.	.	.	.	8.BB-/	.	4d/	.	4b-\	.	4bb-\	.
16C'/K	.	.	16c/K	.	.	.	.	.	.	.	.	.	.	.	.	.	.	.	.	.	.	.	.	.	.	.	16C/K	.	.	.	.	.	.	.
8.D'/	.	.	8.d/	.	4d/	.	4b-\	.	4BB-/	-te(r)	.	4f\	-ter	.	4d\	-pter	.	4b-\	-ter	.	.	.	.	.	.	.	8.D/	.	4d/	.	4b-\	.	4bb-\	.
16E-'/Jk	.	.	16e-/Jk	.	.	.	.	.	.	.	.	.	.	.	.	.	.	.	.	.	.	.	.	.	.	.	16E-/Jk	.	.	.	.	.	.	.
=49	=49	=49	=49	=49	=49	=49	=49	=49	=49	=49	=49	=49	=49	=49	=49	=49	=49	=49	=49	=49	=49	=49	=49	=49	=49	=49	=49	=49	=49	=49	=49	=49	=49	=49
8.F'\L	.	.	8.f\L	.	4d/	.	4b-\	.	4F\	nos	.	(4f\	nos	.	(4d\	nos	.	(4b-\	nos	.	2.r	.	2.r	.	2.r	.	8.F\L	.	(4d/	.	4b-\	.	4bb-\	.
16En'\K	.	.	16e-X\K	.	.	.	.	.	.	.	.	.	.	.	.	.	.	.	.	.	.	.	.	.	.	.	16En\K	.	.	.	.	.	.	.
8.F'\	.	.	8.f\	.	4e-/	.	4a\	.	4FF/	.	.	4f\)	.	.	4e-\)	.	.	4a\)	.	.	.	.	.	.	.	.	8.F\	.	4e-/)	.	4a\	.	4aa\	.
16G'\K	.	.	16g\K	.	.	.	.	.	.	.	.	.	.	.	.	.	.	.	.	.	.	.	.	.	.	.	16G\K	.	.	.	.	.	.	.
8.A'\	.	.	8.a\	.	4g-X/	.	4a\	.	4r	.	.	4r	.	.	4r	.	.	4r	.	.	.	.	.	.	.	.	8.A\	.	4r	.	4r	.	4r	.
16F#X'\Jk	.	.	16en\Jk	.	.	.	.	.	.	.	.	.	.	.	.	.	.	.	.	.	.	.	.	.	.	.	16F#X\Jk	.	.	.	.	.	.	.
!	!	!	!	!	!	!	!	!	!LO:LB:g=original	!	!	!	!	!	!	!	!	!	!	!	!	!	!	!	!	!	!	!	!	!	!	!	!	!
=50	=50	=50	=50	=50	=50	=50	=50	=50	=50	=50	=50	=50	=50	=50	=50	=50	=50	=50	=50	=50	=50	=50	=50	=50	=50	=50	=50	=50	=50	=50	=50	=50	=50	=50
8.G'\L	.	.	8.g\L	.	4B-/	.	4g\	.	4G\	nos	.	4d\	nos	.	4g\	nos	.	4b-\	nos	.	2.r	.	2.r	.	2.r	.	8.G\L	.	4g/	.	4b-\	.	4gg\	.
16F'\K	.	.	16f\K	.	.	.	.	.	.	.	.	.	.	.	.	.	.	.	.	.	.	.	.	.	.	.	16F\K	.	.	.	.	.	.	.
8.G'\	.	.	8.g\	.	4g/	.	4b-\	.	4B-\	ho-	.	4d\	ho-	.	4g\	ho-	.	4b-\	ho-	.	.	.	.	.	.	.	8.G\	.	4g/	.	4b-\	.	4gg\	.
16A'\K	.	.	16a\K	.	.	.	.	.	.	.	.	.	.	.	.	.	.	.	.	.	.	.	.	.	.	.	16A\K	.	.	.	.	.	.	.
8.B-'\	.	.	8.b-\	.	4g/	.	4b-\	.	4B-\	-mi-	.	4d\	-mi-	.	4g\	-mi-	.	4b-\	-mi-	.	.	.	.	.	.	.	8.B-\	.	4g/	.	4b-\	.	4gg\	.
16c'\Jk	.	.	16cc\Jk	.	.	.	.	.	.	.	.	.	.	.	.	.	.	.	.	.	.	.	.	.	.	.	16c\Jk	.	.	.	.	.	.	.
=51	=51	=51	=51	=51	=51	=51	=51	=51	=51	=51	=51	=51	=51	=51	=51	=51	=51	=51	=51	=51	=51	=51	=51	=51	=51	=51	=51	=51	=51	=51	=51	=51	=51	=51
!	!	!	!	!	!	!	!	!	!LO:TX:t=Re	!	!	!	!	!	!	!	!	!	!	!	!	!	!	!	!	!	!	!	!	!	!	!	!	!
8.dn\L	.	.	8ddn\L	.	4g/	.	4b-\	.	(4d\	-nes	.	4d\	-nes	.	(4g\	-nes	.	(4b-\	-nes	.	2.r	.	2.r	.	2.r	.	8.d\L	.	(4g/	.	4b-\	.	4gg\	.
.	.	.	8cc#X\	.	.	.	.	.	.	.	.	.	.	.	.	.	.	.	.	.	.	.	.	.	.	.	.	.	.	.	.	.	.	.
16c#X\K	.	.	.	.	.	.	.	.	.	.	.	.	.	.	.	.	.	.	.	.	.	.	.	.	.	.	16c#X\K	.	.	.	.	.	.	.
!	!	!	!LO:TX:t=P:problem=po nucie kropka	!	!	!	!	!	!	!	!	!	!	!	!	!	!	!	!	!	!	!	!	!	!	!	!	!	!	!	!	!	!	!
8.d\	.	.	8dd\	.	4A/ 4f#X	.	4a\	.	4D\)	.	.	4d\	.	.	4f#X\)	.	.	4a\)	.	.	.	.	.	.	.	.	8.d\	.	4f#X/)	.	4a\	.	4ff#X\	.
.	.	.	8een\	.	.	.	.	.	.	.	.	.	.	.	.	.	.	.	.	.	.	.	.	.	.	.	.	.	.	.	.	.	.	.
16en\K	.	.	.	.	.	.	.	.	.	.	.	.	.	.	.	.	.	.	.	.	.	.	.	.	.	.	16en\K	.	.	.	.	.	.	.
8.f#X\	.	.	8b-\	.	4A/ 4f#	.	4a\	.	4r	.	.	4r	.	.	4r	.	.	4r	.	.	.	.	.	.	.	.	8.a-X\	.	4r	.	4r	.	4r	.
.	.	.	8dd\J	.	.	.	.	.	.	.	.	.	.	.	.	.	.	.	.	.	.	.	.	.	.	.	.	.	.	.	.	.	.	.
16d\Jk	.	.	.	.	.	.	.	.	.	.	.	.	.	.	.	.	.	.	.	.	.	.	.	.	.	.	16d\Jk	.	.	.	.	.	.	.
!	!	!	!LO:LB:g=original	!	!	!	!	!	!LO:LB:g=original	!	!	!	!	!	!	!	!	!LO:LB:g=original	!	!	!	!	!	!	!	!	!	!	!	!	!	!	!	!
=52	=52	=52	=52	=52	=52	=52	=52	=52	=52	=52	=52	=52	=52	=52	=52	=52	=52	=52	=52	=52	=52	=52	=52	=52	=52	=52	=52	=52	=52	=52	=52	=52	=52	=52
!	!	!	!	!	!	!	!	!	!LO:TX:t=Tro	!	!	!	!	!	!	!	!	!	!	!	!	!	!	!	!	!	!	!	!	!	!	!	!	!
8.c\L	.	.	8.cc\L	.	4f/ 4a	.	4cc\	.	8.c\L	et	.	4g\	et	.	4cc\	et	.	4ee-\	et	.	2.r	.	2.r	.	2.r	.	(8.c\L	.	4r	.	4r	.	4ccc\	.
16d\K	.	.	16dd\K	.	.	.	.	.	16d\Jk	.	.	.	.	.	.	.	.	.	.	.	.	.	.	.	.	.	16d\K	.	.	.	.	.	.	.
!	!	!	!LO:TX:t=P:problem=nuta bez kropki	!	!	!	!	!	!	!	!	!	!	!	!	!	!	!	!	!	!	!	!	!	!	!	!	!	!	!	!	!	!	!
8.e-\	.	.	8.ee-\	.	4cc\	.	4ee-\	.	8.e-\L	pro-	.	4g\	prop-	.	4cc\	prop-	.	4ee-\	prop-	.	.	.	.	.	.	.	8.e-X\	.	4e-/	.	4g\	.	4ccc\	.
16d\K	.	.	16dd\K	.	.	.	.	.	16d\Jk	.	.	.	.	.	.	.	.	.	.	.	.	.	.	.	.	.	16d\K	.	.	.	.	.	.	.
8.c\	.	.	8.cc\	.	4cc\	.	4ee-\	.	8.c\L	-pter	.	4g\	-ter	.	4cc\	-ter	.	4ee-\	-ter	.	.	.	.	.	.	.	8.c\	.	4e-/	.	4g\	.	4ccc\	.
16B-\Jk	.	.	16b-\Jk	.	.	.	.	.	16B-\Jk	.	.	.	.	.	.	.	.	.	.	.	.	.	.	.	.	.	16B-\Jk)	.	.	.	.	.	.	.
!	!	!	!	!	!	!	!	!	!	!	!	!LO:LB:g=original	!	!	!	!	!	!	!	!	!	!	!	!	!	!	!	!	!	!	!	!	!	!
!	!	!	!	!	!	!	!	!	!	!	!	!	!	!	!	!	!	!	!	!	!	!	!	!	!	!	!	!	!	!	!LO:LB:g=original	!	!	!
!LO:LB:g=original	!	!	!	!	!	!	!	!	!	!	!	!	!	!	!	!	!	!	!	!	!	!	!	!	!	!	!LO:LB:g=original	!	!	!	!	!	!	!
=53	=53	=53	=53	=53	=53	=53	=53	=53	=53	=53	=53	=53	=53	=53	=53	=53	=53	=53	=53	=53	=53	=53	=53	=53	=53	=53	=53	=53	=53	=53	=53	=53	=53	=53
8.A\L	.	.	8.a\L	.	2cc^\	.	2ee-^\	.	8.A\L	no-	.	2f^\	nos-	.	2cc\	nos-	.	2ee-^\	nos-	.	2.r	.	2.r	.	2.r	.	8.A\L	.	2.f^/	.	2.a^\	.	2eee-\	.
16G\K	.	.	16g\K	.	.	.	.	.	(16G\K	.	.	.	.	.	.	.	.	.	.	.	.	.	.	.	.	.	16G\K	.	.	.	.	.	.	.
8.A\	.	.	8.a\	.	.	.	.	.	8.A\	.	.	.	.	.	.	.	.	.	.	.	.	.	.	.	.	.	8.A\	.	.	.	.	.	.	.
16F\K	.	.	16f\K	.	.	.	.	.	16F\Jk)	.	.	.	.	.	.	.	.	.	.	.	.	.	.	.	.	.	16F\K	.	.	.	.	.	.	.
8.G\	.	.	8.g\	.	4cc\	.	4ee-\	.	8.G\L	-stra(m)	.	4f\	-tra(m)	.	4cc\	-tram	.	4ee-\	-tra(m)	.	.	.	.	.	.	.	8.G\	.	.	.	.	.	4eee-\	.
16A\Jk	.	.	16a\Jk	.	.	.	.	.	16A\Jk	.	.	.	.	.	.	.	.	.	.	.	.	.	.	.	.	.	16A\Jk	.	.	.	.	.	.	.
!	!	!	!	!	!	!	!	!	!	!	!	!	!	!	!LO:LB:g=original	!	!	!	!	!	!	!	!	!	!	!	!	!	!	!	!	!	!LO:LB:g=original	!
=54	=54	=54	=54	=54	=54	=54	=54	=54	=54	=54	=54	=54	=54	=54	=54	=54	=54	=54	=54	=54	=54	=54	=54	=54	=54	=54	=54	=54	=54	=54	=54	=54	=54	=54
8.B-\L	.	.	8.b-\L	.	4b-\	.	4dd\	.	8.B-\L	no-	.	4f\	nos-	.	4b-\	nos-	.	4dd\	nos-	.	2.r	.	2.r	.	2.r	.	8.B-\L	.	4d/	.	4b-\	.	4ddd\	.
16c\K	.	.	16cc\K	.	.	.	.	.	16c\Jk	.	.	.	.	.	.	.	.	.	.	.	.	.	.	.	.	.	16c\K	.	.	.	.	.	.	.
8.d\	.	.	8.dd\	.	4b-\	.	4dd\	.	8.d\L	-stra(m)	.	4f\	-tra(m)	.	4b-\	-tram	.	4dd\	-tra(m)	.	.	.	.	.	.	.	8.d\	.	4d/	.	4b-\	.	4ddd\	.
16c\K	.	.	16cc\K	.	.	.	.	.	16c\Jk	.	.	.	.	.	.	.	.	.	.	.	.	.	.	.	.	.	16c\K	.	.	.	.	.	.	.
8.B-\	.	.	8.b-\	.	4b-\	.	4dd\	.	8.B-\L	sa-	.	4f\	sa-	.	4b-\	sa-	.	4dd\	sa-	.	.	.	.	.	.	.	8.B-\	.	4d/	.	4b-\	.	4ddd\	.
16A\Jk	.	.	16a\Jk	.	.	.	.	.	16A\Jk	.	.	.	.	.	.	.	.	.	.	.	.	.	.	.	.	.	16A\Jk	.	.	.	.	.	.	.
!	!	!	!	!	!	!	!LO:LB:g=original	!	!	!	!	!	!	!	!	!	!	!	!	!	!	!	!	!	!	!	!	!LO:LB:g=original	!	!	!	!	!	!
=55	=55	=55	=55	=55	=55	=55	=55	=55	=55	=55	=55	=55	=55	=55	=55	=55	=55	=55	=55	=55	=55	=55	=55	=55	=55	=55	=55	=55	=55	=55	=55	=55	=55	=55
8.G\L	.	.	8.g\L	.	2b-^\	.	2dd\	.	8.G\L	-lu-	.	2g\	-lu-	.	2b-\	-lu-	.	2dd\	-lu-	.	2.r	.	2.r	.	2.r	.	8.G\L	.	(4g\	.	2.b-^\	.	2ddd\	.
16F#X\K	.	.	16f#X\K	.	.	.	.	.	(16F#X\K	.	.	.	.	.	.	.	.	.	.	.	.	.	.	.	.	.	16F#X\K	.	.	.	.	.	.	.
8.G\	.	.	8.g\	.	.	.	.	.	8.G\	.	.	.	.	.	.	.	.	.	.	.	.	.	.	.	.	.	8.G\	.	2g^\)	.	.	.	.	.
16Fn\K	.	.	16fn\K	.	.	.	.	.	16Fn\Jk)	.	.	.	.	.	.	.	.	.	.	.	.	.	.	.	.	.	16Fn\K	.	.	.	.	.	.	.
8.E-\	.	.	8e-\	.	4b-\	.	4dd\	.	8.E-\L	-tem	.	4g\	-te(m)	.	4b-\	-tem	.	4dd\	-tem	.	.	.	.	.	.	.	8.E-\	.	.	.	.	.	4ddd\	.
.	.	.	8d\J	.	.	.	.	.	.	.	.	.	.	.	.	.	.	.	.	.	.	.	.	.	.	.	.	.	.	.	.	.	.	.
16D\Jk	.	.	.	.	.	.	.	.	16D\Jk	.	.	.	.	.	.	.	.	.	.	.	.	.	.	.	.	.	16D\Jk	.	.	.	.	.	.	.
!	!	!	!	!	!LO:LB:g=original	!	!	!	!LO:LB:g=original	!	!	!	!	!	!	!	!	!	!	!	!	!	!	!	!	!	!	!	!	!	!	!	!	!
=56	=56	=56	=56	=56	=56	=56	=56	=56	=56	=56	=56	=56	=56	=56	=56	=56	=56	=56	=56	=56	=56	=56	=56	=56	=56	=56	=56	=56	=56	=56	=56	=56	=56	=56
!	!	!	!	!	!	!	!	!	!	!	!	!	!	!	!	!	!	!	!	!LO:DY:a	!	!	!	!	!	!	!	!	!	!	!	!	!	!
8.C\L	.	.	8.c\L	.	4g/	.	4cc\	.	8.C/L	de-	.	4g\	de-	.	4g\	de-	.	4cc\	de-	<	2.r	.	2.r	.	2.r	.	8.C\L	.	(4e-/	.	4cc\	.	4ccc\	.
16BBn\K	.	.	16Bn\K	.	.	.	.	.	16BBn/Jk	.	.	.	.	.	.	.	.	.	.	.	.	.	.	.	.	.	16BBn\K	.	.	.	.	.	.	.
8.C\	.	.	8.c\	.	4r	.	4r	.	8.C/L	-scen-	.	4f\	-scen-	.	4f\	-scen-	.	4ee-\	-scen-	.	.	.	.	.	.	.	8.C\	.	4ee-\	.	4gg\	.	4ggg\	.
16D\K	.	.	16d\K	.	.	.	.	.	16D/Jk	.	.	.	.	.	.	.	.	.	.	.	.	.	.	.	.	.	16D\K	.	.	.	.	.	.	.
8.E-\	.	.	8.e-\	.	4r	.	4r	.	8.E-\L	-dit	.	4c\	-dit	.	4e-\	-dit	.	4gg\	-dit	[	.	.	.	.	.	.	8.E-\	.	4cc\)	.	4ee-\	.	4eee-\	.
16En\Jk	.	.	16en\Jk	.	.	.	.	.	16En\Jk	.	.	.	.	.	.	.	.	.	.	.	.	.	.	.	.	.	16En\Jk	.	.	.	.	.	.	.
!	!	!	!LO:LB:g=original	!	!	!	!	!	!	!	!	!	!	!	!	!	!	!	!	!	!	!	!	!	!	!	!	!	!	!	!	!	!	!
=57	=57	=57	=57	=57	=57	=57	=57	=57	=57	=57	=57	=57	=57	=57	=57	=57	=57	=57	=57	=57	=57	=57	=57	=57	=57	=57	=57	=57	=57	=57	=57	=57	=57	=57
4F\	.	.	4f\	.	4r	.	4r	.	(8.F\L	de	.	(2d^\	de	.	2f\	de	.	2ff^\	de	.	2.r	.	2.r	.	2.r	.	8.F\L	.	4r	.	4r	.	2ddd\	.
.	.	.	.	.	.	.	.	.	16En\Jk	.	.	.	.	.	.	.	.	.	.	.	.	.	.	.	.	.	16E-\K	.	.	.	.	.	.	.
!	!	!	!	!	!	!LO:DY:b:t=for	!	!	!	!	!	!	!	!	!	!	!	!	!	!	!	!	!	!	!	!	!	!	!	!	!	!LO:DY:b:t=for	!	!
4r	.	.	4r	.	4f/ 4dd	f	4ff\	.	8.F\L)	.	.	.	.	.	.	.	.	.	.	.	.	.	.	.	.	.	8.F\	.	4b-\	.	4dd\	f	.	.
.	.	.	.	.	.	.	.	.	16E\Jk	.	.	.	.	.	.	.	.	.	.	.	.	.	.	.	.	.	16E-X\K	.	.	.	.	.	.	.
4FF/	.	.	4F/	.	4f/ 4ee-	.	4cc\ 4aa	.	8.D/L	ce-	.	4e-\	ce-	.	4f\	ce-	.	4a\	ce-	.	.	.	.	.	.	.	8.D\	.	4cc\	.	4ee-\	.	4eee-\	.
.	.	.	.	.	.	.	.	.	16C/Jk	.	.	.	.	.	.	.	.	.	.	.	.	.	.	.	.	.	16C\Jk	.	.	.	.	.	.	.
=58	=58	=58	=58	=58	=58	=58	=58	=58	=58	=58	=58	=58	=58	=58	=58	=58	=58	=58	=58	=58	=58	=58	=58	=58	=58	=58	=58	=58	=58	=58	=58	=58	=58	=58
4BB-\	.	.	4B-/	.	4f/ 4dd	.	4bb-\	.	4BB-/	-lis	.	4d\)	-lis	.	4f\	-lis	.	4b-\	-lis	.	4r	.	4r	.	4r	.	4BB-/	.	4b-\	.	4dd\	.	4ddd\	.
4F\	.	.	4f\	.	4B-/ 4d	.	4d/ 4b-	.	4r	.	.	4r	.	.	4r	.	.	4r	.	.	4BB-/	.	4b-\	.	4d/	.	4f\	.	4d/	.	4b-\	.	4bb-\	.
4D\	.	.	4d\	.	4B-/ 4d	.	4d/ 4b-	.	4r	.	.	4r	.	.	4r	.	.	4r	.	.	4BB-/	.	4b-\	.	4d/	.	4d\	.	4d/	.	4b-\	.	4bb-\	.
=59	=59	=59	=59	=59	=59	=59	=59	=59	=59	=59	=59	=59	=59	=59	=59	=59	=59	=59	=59	=59	=59	=59	=59	=59	=59	=59	=59	=59	=59	=59	=59	=59	=59	=59
2BB-/	.	.	2B-/	.	2B-/ 2d	.	2d/ 2b-	.	2.r	.	.	2.r	.	.	2.r	.	.	2.r	.	.	4BB-/	.	2b-\	.	2d/	.	4B-\	.	2d/	.	2b-\	.	2bb-\	.
.	.	.	.	.	.	.	.	.	.	.	.	.	.	.	.	.	.	.	.	.	4r	.	.	.	.	.	4BB-/	.	.	.	.	.	.	.
!	!	!	!	!	!	!	!	!	!	!	!	!	!	!	!	!	!	!	!	!	!	!	!	!	!	!	!LO:TX:t=P:problem=brak ostatniej wartości w takcie	!	!	!	!	!	!	!
4r	.	.	4r	.	4r	.	4r	.	.	.	.	.	.	.	.	.	.	.	.	.	4r	.	4r	.	4r	.	4BB-/yy	.	4r	.	4r	.	4r	.
==	==	==	==	==	==	==	==	==	==	==	==	==	==	==	==	==	==	==	==	==	==	==	==	==	==	==	==	==	==	==	==	==	==	==
*-	*-	*-	*-	*-	*-	*-	*-	*-	*-	*-	*-	*-	*-	*-	*-	*-	*-	*-	*-	*-	*-	*-	*-	*-	*-	*-	*-	*-	*-	*-	*-	*-	*-	*-
!!!system-decoration: [(s1,s2,s3,s4)][(s5,s6)][s7][(s8,s9,s10,s11)][(s12,s13,s14)]s15
!!!ENC: Mateusz Solarz
!!!END: 2020-08-06
!!!ENC: Jan Barakat
!!!END: 2022-02-20
!!!YEC: Copyright 2022 Narodowy Instytut Fryderyka Chopina (https://polishscores.org)
!!!YEM: License CC-BY-4.0 (https://creativecommons.org/licenses/by/4.0)
